assets/luts-cube/lut-3.cube
#Generated by lutCreator.js
#Coded by SirSerch
#https://github.com/SirSerch/LutCreatorJs
TITLE lutCreatorJs_25
LUT_3D_SIZE 25
0.301961 0.301961 0.301961
0.301961 0.301961 0.301961
0.301961 0.301961 0.301961
0.301961 0.301961 0.301961
0.301961 0.301961 0.301961
0.301961 0.301961 0.301961
0.301961 0.301961 0.301961
0.301961 0.301961 0.301961
0.301961 0.301961 0.301961
0.301961 0.301961 0.301961
0.301961 0.301961 0.301961
0.301961 0.301961 0.301961
0.301961 0.301961 0.301961
0.301961 0.301961 0.301961
0.301961 0.301961 0.301961
0.301961 0.301961 0.301961
0.313725 0.301961 0.301961
0.407843 0.305882 0.298039
0.490196 0.313725 0.294118
0.572549 0.321569 0.290196
0.654902 0.329412 0.282353
0.725490 0.337255 0.278431
0.803922 0.345098 0.274510
0.874510 0.349020 0.266667
0.945098 0.352941 0.258824
0.301961 0.301961 0.301961
0.301961 0.301961 0.301961
0.301961 0.301961 0.301961
0.301961 0.301961 0.301961
0.301961 0.301961 0.301961
0.301961 0.301961 0.301961
0.301961 0.301961 0.301961
0.301961 0.301961 0.301961
0.301961 0.301961 0.301961
0.301961 0.301961 0.301961
0.301961 0.301961 0.301961
0.301961 0.301961 0.301961
0.301961 0.301961 0.301961
0.301961 0.301961 0.301961
0.301961 0.301961 0.301961
0.301961 0.301961 0.301961
0.313725 0.301961 0.301961
0.407843 0.309804 0.298039
0.490196 0.321569 0.298039
0.576471 0.329412 0.290196
0.654902 0.337255 0.286275
0.725490 0.345098 0.278431
0.803922 0.349020 0.270588
0.870588 0.356863 0.262745
0.945098 0.360784 0.254902
0.301961 0.301961 0.301961
0.301961 0.301961 0.301961
0.301961 0.301961 0.301961
0.301961 0.301961 0.301961
0.301961 0.301961 0.301961
0.301961 0.301961 0.301961
0.301961 0.301961 0.301961
0.301961 0.301961 0.301961
0.301961 0.301961 0.301961
0.301961 0.301961 0.301961
0.301961 0.301961 0.301961
0.301961 0.301961 0.301961
0.301961 0.301961 0.301961
0.301961 0.301961 0.301961
0.301961 0.301961 0.301961
0.301961 0.301961 0.301961
0.313725 0.301961 0.298039
0.407843 0.309804 0.298039
0.490196 0.321569 0.294118
0.572549 0.333333 0.290196
0.650980 0.341176 0.282353
0.725490 0.352941 0.278431
0.803922 0.360784 0.270588
0.874510 0.368627 0.266667
0.945098 0.376471 0.254902
0.301961 0.301961 0.301961
0.301961 0.301961 0.301961
0.301961 0.301961 0.301961
0.301961 0.301961 0.301961
0.301961 0.301961 0.301961
0.301961 0.301961 0.301961
0.301961 0.301961 0.301961
0.301961 0.301961 0.301961
0.301961 0.301961 0.301961
0.301961 0.301961 0.301961
0.301961 0.301961 0.301961
0.301961 0.301961 0.301961
0.301961 0.301961 0.301961
0.301961 0.301961 0.301961
0.301961 0.301961 0.301961
0.301961 0.301961 0.301961
0.317647 0.305882 0.301961
0.407843 0.313725 0.294118
0.490196 0.329412 0.294118
0.572549 0.341176 0.286275
0.650980 0.352941 0.278431
0.721569 0.364706 0.274510
0.803922 0.376471 0.266667
0.874510 0.388235 0.262745
0.941176 0.392157 0.250980
0.301961 0.301961 0.301961
0.301961 0.301961 0.301961
0.301961 0.301961 0.301961
0.301961 0.301961 0.301961
0.301961 0.301961 0.301961
0.301961 0.301961 0.301961
0.301961 0.301961 0.301961
0.301961 0.301961 0.301961
0.301961 0.301961 0.301961
0.301961 0.301961 0.301961
0.301961 0.301961 0.301961
0.301961 0.301961 0.301961
0.301961 0.301961 0.301961
0.301961 0.301961 0.301961
0.301961 0.301961 0.301961
0.301961 0.301961 0.301961
0.317647 0.305882 0.301961
0.411765 0.321569 0.298039
0.490196 0.337255 0.290196
0.572549 0.356863 0.286275
0.658824 0.372549 0.278431
0.737255 0.388235 0.270588
0.819608 0.400000 0.258824
0.890196 0.411765 0.250980
0.960784 0.419608 0.243137
0.301961 0.301961 0.301961
0.301961 0.301961 0.301961
0.301961 0.301961 0.301961
0.301961 0.301961 0.301961
0.301961 0.301961 0.301961
0.301961 0.301961 0.301961
0.301961 0.301961 0.301961
0.301961 0.301961 0.301961
0.301961 0.301961 0.301961
0.301961 0.301961 0.301961
0.301961 0.301961 0.301961
0.301961 0.301961 0.301961
0.301961 0.301961 0.301961
0.301961 0.301961 0.301961
0.301961 0.301961 0.301961
0.301961 0.301961 0.301961
0.325490 0.309804 0.301961
0.411765 0.329412 0.294118
0.486275 0.345098 0.290196
0.568627 0.368627 0.282353
0.650980 0.388235 0.274510
0.721569 0.403922 0.266667
0.796078 0.415686 0.258824
0.866667 0.427451 0.247059
0.941176 0.439216 0.239216
0.301961 0.301961 0.301961
0.301961 0.301961 0.301961
0.301961 0.301961 0.301961
0.301961 0.301961 0.301961
0.301961 0.301961 0.301961
0.301961 0.301961 0.301961
0.301961 0.301961 0.301961
0.301961 0.301961 0.301961
0.301961 0.301961 0.301961
0.301961 0.301961 0.301961
0.301961 0.301961 0.301961
0.301961 0.301961 0.301961
0.301961 0.301961 0.301961
0.301961 0.301961 0.301961
0.301961 0.301961 0.301961
0.301961 0.301961 0.301961
0.325490 0.309804 0.298039
0.415686 0.337255 0.294118
0.490196 0.360784 0.290196
0.568627 0.380392 0.278431
0.650980 0.407843 0.274510
0.721569 0.423529 0.262745
0.796078 0.439216 0.250980
0.862745 0.454902 0.243137
0.933333 0.466667 0.231373
0.301961 0.301961 0.301961
0.301961 0.301961 0.301961
0.301961 0.301961 0.301961
0.301961 0.301961 0.301961
0.301961 0.301961 0.301961
0.301961 0.301961 0.301961
0.301961 0.301961 0.301961
0.301961 0.301961 0.301961
0.301961 0.301961 0.301961
0.301961 0.301961 0.301961
0.301961 0.301961 0.301961
0.301961 0.301961 0.301961
0.301961 0.301961 0.301961
0.301961 0.301961 0.301961
0.301961 0.301961 0.301961
0.301961 0.301961 0.301961
0.329412 0.313725 0.298039
0.415686 0.349020 0.294118
0.490196 0.372549 0.286275
0.568627 0.400000 0.278431
0.650980 0.427451 0.270588
0.717647 0.443137 0.258824
0.796078 0.462745 0.247059
0.862745 0.482353 0.235294
0.933333 0.494118 0.223529
0.301961 0.301961 0.301961
0.301961 0.301961 0.301961
0.301961 0.301961 0.301961
0.301961 0.301961 0.301961
0.301961 0.301961 0.301961
0.301961 0.301961 0.301961
0.301961 0.301961 0.301961
0.301961 0.301961 0.301961
0.301961 0.301961 0.301961
0.301961 0.301961 0.301961
0.301961 0.301961 0.301961
0.301961 0.301961 0.301961
0.301961 0.301961 0.301961
0.301961 0.301961 0.301961
0.301961 0.301961 0.301961
0.301961 0.301961 0.301961
0.333333 0.317647 0.298039
0.415686 0.360784 0.290196
0.486275 0.388235 0.282353
0.568627 0.419608 0.270588
0.647059 0.447059 0.262745
0.717647 0.470588 0.250980
0.792157 0.494118 0.239216
0.858824 0.509804 0.223529
0.929412 0.525490 0.207843
0.301961 0.301961 0.301961
0.301961 0.301961 0.301961
0.301961 0.301961 0.301961
0.301961 0.301961 0.301961
0.301961 0.301961 0.301961
0.301961 0.301961 0.301961
0.301961 0.301961 0.301961
0.301961 0.301961 0.301961
0.301961 0.301961 0.301961
0.301961 0.301961 0.301961
0.301961 0.301961 0.301961
0.301961 0.301961 0.301961
0.301961 0.301961 0.301961
0.301961 0.301961 0.301961
0.301961 0.301961 0.301961
0.301961 0.301961 0.301961
0.337255 0.325490 0.294118
0.415686 0.372549 0.286275
0.490196 0.407843 0.278431
0.572549 0.447059 0.266667
0.654902 0.482353 0.250980
0.729412 0.509804 0.239216
0.811765 0.533333 0.223529
0.874510 0.552941 0.203922
0.945098 0.568627 0.188235
0.301961 0.301961 0.301961
0.301961 0.301961 0.301961
0.301961 0.301961 0.301961
0.301961 0.301961 0.301961
0.301961 0.301961 0.301961
0.301961 0.301961 0.301961
0.301961 0.305882 0.301961
0.301961 0.313725 0.301961
0.301961 0.321569 0.301961
0.305882 0.325490 0.298039
0.309804 0.333333 0.298039
0.317647 0.341176 0.294118
0.325490 0.345098 0.298039
0.333333 0.345098 0.294118
0.341176 0.349020 0.294118
0.352941 0.352941 0.294118
0.372549 0.360784 0.290196
0.423529 0.392157 0.286275
0.490196 0.427451 0.270588
0.564706 0.466667 0.258824
0.643137 0.501961 0.247059
0.709804 0.529412 0.231373
0.788235 0.556863 0.215686
0.858824 0.576471 0.200000
0.925490 0.596078 0.180392
0.266667 0.388235 0.290196
0.266667 0.388235 0.290196
0.266667 0.388235 0.286275
0.270588 0.392157 0.290196
0.270588 0.392157 0.286275
0.274510 0.396078 0.286275
0.282353 0.400000 0.286275
0.286275 0.400000 0.282353
0.298039 0.407843 0.282353
0.309804 0.411765 0.282353
0.321569 0.419608 0.282353
0.341176 0.423529 0.282353
0.356863 0.431373 0.278431
0.372549 0.431373 0.278431
0.392157 0.435294 0.278431
0.411765 0.435294 0.274510
0.435294 0.443137 0.274510
0.458824 0.447059 0.266667
0.494118 0.458824 0.266667
0.564706 0.498039 0.250980
0.643137 0.537255 0.235294
0.709804 0.560784 0.215686
0.784314 0.592157 0.196078
0.850980 0.611765 0.176471
0.921569 0.631373 0.156863
0.203922 0.474510 0.270588
0.207843 0.474510 0.266667
0.211765 0.474510 0.266667
0.219608 0.478431 0.270588
0.223529 0.478431 0.266667
0.235294 0.482353 0.266667
0.247059 0.482353 0.266667
0.262745 0.486275 0.266667
0.278431 0.490196 0.262745
0.298039 0.490196 0.262745
0.317647 0.494118 0.258824
0.341176 0.498039 0.258824
0.368627 0.505882 0.258824
0.388235 0.509804 0.254902
0.419608 0.513725 0.250980
0.443137 0.513725 0.250980
0.474510 0.521569 0.250980
0.505882 0.525490 0.247059
0.537255 0.533333 0.239216
0.580392 0.545098 0.235294
0.639216 0.568627 0.219608
0.705882 0.600000 0.200000
0.780392 0.627451 0.172549
0.850980 0.654902 0.152941
0.917647 0.674510 0.121569
0.105882 0.545098 0.247059
0.117647 0.549020 0.250980
0.125490 0.545098 0.247059
0.137255 0.549020 0.247059
0.156863 0.552941 0.247059
0.176471 0.552941 0.247059
0.200000 0.552941 0.247059
0.219608 0.556863 0.243137
0.247059 0.556863 0.239216
0.278431 0.560784 0.243137
0.301961 0.564706 0.239216
0.329412 0.564706 0.235294
0.360784 0.568627 0.231373
0.396078 0.576471 0.231373
0.427451 0.580392 0.227451
0.458824 0.580392 0.223529
0.494118 0.588235 0.223529
0.529412 0.592157 0.215686
0.564706 0.603922 0.211765
0.607843 0.611765 0.203922
0.654902 0.623529 0.192157
0.701961 0.639216 0.180392
0.780392 0.670588 0.149020
0.843137 0.690196 0.117647
0.913725 0.713725 0.074510
0.000000 0.619608 0.215686
0.000000 0.623529 0.219608
0.000000 0.623529 0.215686
0.000000 0.623529 0.215686
0.000000 0.627451 0.219608
0.000000 0.623529 0.215686
0.086275 0.623529 0.211765
0.141176 0.631373 0.215686
0.184314 0.627451 0.211765
0.231373 0.631373 0.207843
0.270588 0.635294 0.207843
0.309804 0.639216 0.207843
0.349020 0.643137 0.200000
0.384314 0.647059 0.200000
0.423529 0.647059 0.192157
0.462745 0.654902 0.192157
0.501961 0.658824 0.184314
0.541176 0.662745 0.176471
0.580392 0.670588 0.168627
0.627451 0.682353 0.152941
0.682353 0.701961 0.137255
0.737255 0.717647 0.113725
0.792157 0.729412 0.074510
0.854902 0.752941 0.007843
0.921569 0.768627 0.000000
0.000000 0.686275 0.184314
0.000000 0.690196 0.184314
0.000000 0.690196 0.184314
0.000000 0.690196 0.184314
0.000000 0.690196 0.180392
0.000000 0.690196 0.180392
0.000000 0.690196 0.176471
0.000000 0.694118 0.176471
0.066667 0.694118 0.176471
0.156863 0.694118 0.172549
0.215686 0.698039 0.168627
0.270588 0.701961 0.164706
0.321569 0.705882 0.160784
0.364706 0.705882 0.156863
0.407843 0.709804 0.149020
0.454902 0.713725 0.149020
0.498039 0.717647 0.141176
0.541176 0.721569 0.133333
0.584314 0.729412 0.121569
0.631373 0.737255 0.105882
0.678431 0.749020 0.078431
0.725490 0.756863 0.047059
0.784314 0.772549 0.000000
0.835294 0.784314 0.000000
0.901961 0.800000 0.000000
0.000000 0.756863 0.129412
0.000000 0.756863 0.125490
0.000000 0.756863 0.129412
0.000000 0.756863 0.125490
0.000000 0.756863 0.125490
0.000000 0.756863 0.121569
0.000000 0.760784 0.121569
0.000000 0.760784 0.121569
0.000000 0.760784 0.113725
0.000000 0.764706 0.113725
0.101961 0.764706 0.105882
0.203922 0.768627 0.101961
0.274510 0.768627 0.094118
0.329412 0.772549 0.090196
0.384314 0.772549 0.082353
0.431373 0.776471 0.070588
0.482353 0.780392 0.058824
0.525490 0.780392 0.039216
0.572549 0.784314 0.019608
0.619608 0.792157 0.000000
0.670588 0.800000 0.000000
0.721569 0.811765 0.000000
0.776471 0.823529 0.000000
0.827451 0.831373 0.000000
0.890196 0.847059 0.000000
0.000000 0.819608 0.023529
0.000000 0.819608 0.023529
0.000000 0.819608 0.023529
0.000000 0.819608 0.019608
0.000000 0.819608 0.015686
0.000000 0.819608 0.011765
0.000000 0.819608 0.003922
0.000000 0.819608 0.000000
0.000000 0.823529 0.000000
0.000000 0.823529 0.000000
0.000000 0.823529 0.000000
0.035294 0.827451 0.000000
0.192157 0.827451 0.000000
0.270588 0.827451 0.000000
0.341176 0.831373 0.000000
0.396078 0.831373 0.000000
0.450980 0.835294 0.000000
0.505882 0.835294 0.000000
0.552941 0.839216 0.000000
0.603922 0.843137 0.000000
0.654902 0.850980 0.000000
0.701961 0.854902 0.000000
0.756863 0.866667 0.000000
0.811765 0.874510 0.000000
0.878431 0.890196 0.000000
0.000000 0.870588 0.000000
0.000000 0.870588 0.000000
0.000000 0.870588 0.000000
0.000000 0.870588 0.000000
0.000000 0.866667 0.000000
0.000000 0.870588 0.000000
0.000000 0.870588 0.000000
0.000000 0.870588 0.000000
0.000000 0.874510 0.000000
0.000000 0.874510 0.000000
0.000000 0.874510 0.000000
0.000000 0.874510 0.000000
0.000000 0.874510 0.000000
0.184314 0.874510 0.000000
0.282353 0.878431 0.000000
0.352941 0.882353 0.000000
0.415686 0.882353 0.000000
0.474510 0.882353 0.000000
0.525490 0.882353 0.000000
0.580392 0.886275 0.000000
0.631373 0.886275 0.000000
0.682353 0.898039 0.000000
0.737255 0.905882 0.000000
0.788235 0.909804 0.000000
0.854902 0.921569 0.000000
0.000000 0.921569 0.000000
0.000000 0.917647 0.000000
0.000000 0.917647 0.000000
0.000000 0.917647 0.000000
0.000000 0.917647 0.000000
0.000000 0.921569 0.000000
0.000000 0.921569 0.000000
0.000000 0.921569 0.000000
0.000000 0.921569 0.000000
0.000000 0.921569 0.000000
0.000000 0.921569 0.000000
0.000000 0.921569 0.000000
0.000000 0.925490 0.000000
0.000000 0.921569 0.000000
0.176471 0.921569 0.000000
0.278431 0.925490 0.000000
0.360784 0.925490 0.000000
0.427451 0.925490 0.000000
0.486275 0.929412 0.000000
0.545098 0.933333 0.000000
0.600000 0.933333 0.000000
0.654902 0.941176 0.000000
0.713725 0.949020 0.000000
0.764706 0.949020 0.000000
0.827451 0.956863 0.000000
0.000000 0.960784 0.000000
0.000000 0.964706 0.000000
0.000000 0.960784 0.000000
0.000000 0.960784 0.000000
0.000000 0.960784 0.000000
0.000000 0.964706 0.000000
0.000000 0.964706 0.000000
0.000000 0.964706 0.000000
0.000000 0.964706 0.000000
0.000000 0.960784 0.000000
0.000000 0.964706 0.000000
0.000000 0.964706 0.000000
0.000000 0.964706 0.000000
0.000000 0.968627 0.000000
0.000000 0.964706 0.000000
0.133333 0.964706 0.000000
0.270588 0.968627 0.000000
0.360784 0.968627 0.000000
0.427451 0.968627 0.000000
0.494118 0.968627 0.000000
0.556863 0.968627 0.000000
0.607843 0.968627 0.000000
0.666667 0.968627 0.000000
0.721569 0.972549 0.000000
0.784314 0.976471 0.000000
0.000000 0.996078 0.000000
0.000000 1.000000 0.000000
0.000000 0.996078 0.000000
0.000000 1.000000 0.000000
0.000000 1.000000 0.000000
0.000000 0.996078 0.000000
0.000000 0.996078 0.000000
0.000000 1.000000 0.000000
0.000000 1.000000 0.000000
0.000000 1.000000 0.000000
0.000000 1.000000 0.000000
0.000000 0.996078 0.000000
0.000000 1.000000 0.000000
0.000000 1.000000 0.000000
0.000000 1.000000 0.000000
0.000000 1.000000 0.000000
0.078431 1.000000 0.000000
0.254902 1.000000 0.000000
0.345098 1.000000 0.000000
0.431373 1.000000 0.000000
0.501961 1.000000 0.000000
0.564706 0.996078 0.000000
0.627451 0.996078 0.000000
0.682353 0.996078 0.000000
0.749020 1.000000 0.000000
0.000000 1.000000 0.000000
0.000000 1.000000 0.000000
0.000000 1.000000 0.000000
0.000000 1.000000 0.000000
0.000000 1.000000 0.000000
0.000000 1.000000 0.000000
0.000000 1.000000 0.000000
0.000000 1.000000 0.000000
0.000000 1.000000 0.000000
0.000000 1.000000 0.000000
0.000000 1.000000 0.000000
0.000000 1.000000 0.000000
0.000000 1.000000 0.000000
0.000000 1.000000 0.000000
0.000000 1.000000 0.000000
0.000000 1.000000 0.000000
0.000000 1.000000 0.000000
0.000000 1.000000 0.000000
0.215686 1.000000 0.000000
0.345098 1.000000 0.000000
0.439216 1.000000 0.000000
0.509804 1.000000 0.000000
0.580392 1.000000 0.000000
0.643137 1.000000 0.000000
0.709804 1.000000 0.000000
0.000000 1.000000 0.000000
0.000000 1.000000 0.000000
0.000000 1.000000 0.000000
0.000000 1.000000 0.000000
0.000000 1.000000 0.000000
0.000000 1.000000 0.000000
0.000000 1.000000 0.000000
0.000000 1.000000 0.000000
0.000000 1.000000 0.000000
0.000000 1.000000 0.000000
0.000000 1.000000 0.000000
0.000000 1.000000 0.000000
0.000000 1.000000 0.000000
0.000000 1.000000 0.000000
0.000000 1.000000 0.000000
0.000000 1.000000 0.000000
0.000000 1.000000 0.000000
0.000000 1.000000 0.000000
0.000000 1.000000 0.000000
0.262745 1.000000 0.000000
0.384314 1.000000 0.000000
0.474510 1.000000 0.000000
0.560784 1.000000 0.000000
0.631373 1.000000 0.000000
0.698039 1.000000 0.000000
0.000000 1.000000 0.000000
0.000000 1.000000 0.000000
0.000000 1.000000 0.000000
0.000000 1.000000 0.000000
0.000000 1.000000 0.000000
0.000000 1.000000 0.000000
0.000000 1.000000 0.000000
0.000000 1.000000 0.000000
0.000000 1.000000 0.000000
0.000000 1.000000 0.000000
0.000000 1.000000 0.000000
0.000000 1.000000 0.000000
0.000000 1.000000 0.000000
0.000000 1.000000 0.000000
0.000000 1.000000 0.000000
0.000000 1.000000 0.000000
0.000000 1.000000 0.000000
0.000000 1.000000 0.000000
0.000000 1.000000 0.000000
0.290196 1.000000 0.000000
0.427451 1.000000 0.000000
0.529412 1.000000 0.000000
0.623529 1.000000 0.000000
0.705882 1.000000 0.000000
0.788235 1.000000 0.000000
0.301961 0.301961 0.301961
0.301961 0.301961 0.301961
0.301961 0.301961 0.301961
0.301961 0.301961 0.301961
0.301961 0.301961 0.301961
0.301961 0.301961 0.301961
0.301961 0.301961 0.301961
0.301961 0.301961 0.301961
0.301961 0.301961 0.301961
0.301961 0.301961 0.301961
0.301961 0.301961 0.301961
0.301961 0.301961 0.301961
0.301961 0.301961 0.301961
0.301961 0.301961 0.301961
0.301961 0.301961 0.301961
0.301961 0.301961 0.301961
0.313725 0.301961 0.301961
0.407843 0.309804 0.298039
0.486275 0.313725 0.294118
0.576471 0.325490 0.290196
0.654902 0.333333 0.286275
0.725490 0.337255 0.278431
0.803922 0.345098 0.270588
0.874510 0.352941 0.266667
0.945098 0.356863 0.254902
0.301961 0.301961 0.301961
0.301961 0.301961 0.301961
0.301961 0.301961 0.301961
0.301961 0.301961 0.301961
0.301961 0.301961 0.301961
0.301961 0.301961 0.301961
0.301961 0.301961 0.301961
0.301961 0.301961 0.301961
0.301961 0.301961 0.301961
0.301961 0.301961 0.301961
0.301961 0.301961 0.301961
0.301961 0.301961 0.301961
0.301961 0.301961 0.301961
0.301961 0.301961 0.301961
0.301961 0.301961 0.301961
0.301961 0.301961 0.301961
0.317647 0.305882 0.301961
0.407843 0.313725 0.298039
0.490196 0.321569 0.294118
0.572549 0.329412 0.290196
0.654902 0.337255 0.282353
0.725490 0.349020 0.278431
0.803922 0.356863 0.270588
0.870588 0.360784 0.262745
0.945098 0.364706 0.254902
0.301961 0.301961 0.301961
0.301961 0.301961 0.301961
0.301961 0.301961 0.301961
0.301961 0.301961 0.301961
0.301961 0.301961 0.301961
0.301961 0.301961 0.301961
0.301961 0.301961 0.301961
0.301961 0.301961 0.301961
0.301961 0.301961 0.301961
0.301961 0.301961 0.301961
0.301961 0.301961 0.301961
0.301961 0.301961 0.301961
0.301961 0.301961 0.301961
0.301961 0.301961 0.301961
0.301961 0.301961 0.301961
0.301961 0.301961 0.301961
0.313725 0.301961 0.301961
0.407843 0.313725 0.298039
0.490196 0.325490 0.294118
0.572549 0.337255 0.290196
0.654902 0.349020 0.282353
0.725490 0.356863 0.278431
0.803922 0.364706 0.270588
0.870588 0.368627 0.262745
0.941176 0.376471 0.254902
0.301961 0.301961 0.301961
0.301961 0.301961 0.301961
0.301961 0.301961 0.301961
0.301961 0.301961 0.301961
0.301961 0.301961 0.301961
0.301961 0.301961 0.301961
0.301961 0.301961 0.301961
0.301961 0.301961 0.301961
0.301961 0.301961 0.301961
0.301961 0.301961 0.301961
0.301961 0.301961 0.301961
0.301961 0.301961 0.301961
0.301961 0.301961 0.301961
0.301961 0.301961 0.301961
0.301961 0.301961 0.301961
0.301961 0.301961 0.301961
0.317647 0.305882 0.301961
0.407843 0.317647 0.294118
0.486275 0.329412 0.290196
0.572549 0.345098 0.286275
0.654902 0.356863 0.282353
0.729412 0.368627 0.274510
0.803922 0.376471 0.262745
0.870588 0.388235 0.258824
0.945098 0.396078 0.250980
0.301961 0.301961 0.301961
0.301961 0.301961 0.301961
0.301961 0.301961 0.301961
0.301961 0.301961 0.301961
0.301961 0.301961 0.301961
0.301961 0.301961 0.301961
0.301961 0.301961 0.301961
0.301961 0.301961 0.301961
0.301961 0.301961 0.301961
0.301961 0.301961 0.301961
0.301961 0.301961 0.301961
0.301961 0.301961 0.301961
0.301961 0.301961 0.301961
0.301961 0.301961 0.301961
0.301961 0.301961 0.301961
0.301961 0.301961 0.301961
0.317647 0.301961 0.298039
0.411765 0.325490 0.298039
0.494118 0.345098 0.294118
0.584314 0.360784 0.282353
0.670588 0.376471 0.274510
0.749020 0.392157 0.266667
0.827451 0.403922 0.258824
0.894118 0.411765 0.247059
0.964706 0.419608 0.239216
0.301961 0.301961 0.301961
0.301961 0.301961 0.301961
0.301961 0.301961 0.301961
0.301961 0.301961 0.301961
0.301961 0.301961 0.301961
0.301961 0.301961 0.301961
0.301961 0.301961 0.301961
0.301961 0.301961 0.301961
0.301961 0.301961 0.301961
0.301961 0.301961 0.301961
0.301961 0.301961 0.301961
0.301961 0.301961 0.301961
0.301961 0.301961 0.301961
0.301961 0.301961 0.301961
0.301961 0.301961 0.301961
0.301961 0.301961 0.301961
0.321569 0.305882 0.298039
0.407843 0.329412 0.294118
0.490196 0.349020 0.290196
0.568627 0.368627 0.282353
0.647059 0.388235 0.274510
0.721569 0.403922 0.266667
0.800000 0.419608 0.258824
0.866667 0.431373 0.247059
0.941176 0.443137 0.243137
0.301961 0.301961 0.301961
0.301961 0.301961 0.301961
0.301961 0.301961 0.301961
0.301961 0.301961 0.301961
0.301961 0.301961 0.301961
0.301961 0.301961 0.301961
0.301961 0.301961 0.301961
0.301961 0.301961 0.301961
0.301961 0.301961 0.301961
0.301961 0.301961 0.301961
0.301961 0.301961 0.301961
0.301961 0.301961 0.301961
0.301961 0.301961 0.301961
0.301961 0.301961 0.301961
0.301961 0.301961 0.301961
0.301961 0.301961 0.301961
0.329412 0.313725 0.301961
0.415686 0.341176 0.294118
0.490196 0.360784 0.286275
0.568627 0.384314 0.278431
0.647059 0.403922 0.270588
0.721569 0.427451 0.262745
0.796078 0.443137 0.250980
0.862745 0.458824 0.243137
0.937255 0.470588 0.231373
0.301961 0.301961 0.301961
0.301961 0.301961 0.301961
0.301961 0.301961 0.301961
0.301961 0.301961 0.301961
0.301961 0.301961 0.301961
0.301961 0.301961 0.301961
0.301961 0.301961 0.301961
0.301961 0.301961 0.301961
0.301961 0.301961 0.301961
0.301961 0.301961 0.301961
0.301961 0.301961 0.301961
0.301961 0.301961 0.301961
0.301961 0.301961 0.301961
0.301961 0.301961 0.301961
0.301961 0.301961 0.301961
0.301961 0.301961 0.301961
0.329412 0.313725 0.298039
0.415686 0.349020 0.294118
0.490196 0.372549 0.286275
0.568627 0.400000 0.274510
0.647059 0.423529 0.266667
0.717647 0.447059 0.258824
0.796078 0.466667 0.247059
0.862745 0.478431 0.231373
0.933333 0.494118 0.223529
0.301961 0.301961 0.301961
0.301961 0.301961 0.301961
0.301961 0.301961 0.301961
0.301961 0.301961 0.301961
0.301961 0.301961 0.301961
0.301961 0.301961 0.301961
0.301961 0.301961 0.301961
0.301961 0.301961 0.301961
0.301961 0.301961 0.301961
0.301961 0.301961 0.301961
0.301961 0.301961 0.301961
0.301961 0.301961 0.301961
0.301961 0.301961 0.301961
0.301961 0.301961 0.301961
0.301961 0.301961 0.301961
0.301961 0.301961 0.301961
0.337255 0.321569 0.298039
0.415686 0.360784 0.290196
0.486275 0.388235 0.278431
0.576471 0.427451 0.274510
0.654902 0.454902 0.258824
0.729412 0.478431 0.247059
0.803922 0.498039 0.231373
0.866667 0.513725 0.223529
0.929412 0.525490 0.211765
0.301961 0.301961 0.301961
0.301961 0.301961 0.301961
0.301961 0.301961 0.301961
0.301961 0.301961 0.301961
0.301961 0.301961 0.301961
0.301961 0.301961 0.301961
0.301961 0.301961 0.301961
0.301961 0.301961 0.301961
0.301961 0.301961 0.301961
0.301961 0.301961 0.301961
0.301961 0.301961 0.301961
0.301961 0.301961 0.301961
0.301961 0.301961 0.301961
0.301961 0.301961 0.301961
0.301961 0.301961 0.301961
0.301961 0.301961 0.301961
0.345098 0.329412 0.298039
0.423529 0.376471 0.286275
0.501961 0.419608 0.274510
0.588235 0.458824 0.262745
0.670588 0.490196 0.247059
0.745098 0.517647 0.235294
0.823529 0.541176 0.215686
0.890196 0.560784 0.203922
0.956863 0.572549 0.184314
0.301961 0.301961 0.301961
0.301961 0.301961 0.301961
0.301961 0.301961 0.301961
0.301961 0.301961 0.301961
0.305882 0.305882 0.305882
0.301961 0.301961 0.301961
0.301961 0.305882 0.301961
0.301961 0.313725 0.301961
0.301961 0.317647 0.298039
