assets/luts-cube/lut-2.cube
#Generated by lutCreator.js
#Coded by SirSerch
#https://github.com/SirSerch/LutCreatorJs
TITLE lutCreatorJs_25
LUT_3D_SIZE 9
0.000000 0.000000 0.000000
0.125490 0.000000 0.000000
0.266667 0.000000 0.000000
0.407843 0.000000 0.000000
0.564706 0.000000 0.000000
0.725490 0.000000 0.000000
0.882353 0.000000 0.000000
1.000000 0.000000 0.000000
1.000000 0.000000 0.000000
0.000000 0.133333 0.000000
0.129412 0.129412 0.000000
0.270588 0.137255 0.000000
0.411765 0.137255 0.000000
0.564706 0.137255 0.000000
0.725490 0.141176 0.000000
0.882353 0.141176 0.000000
1.000000 0.129412 0.000000
1.000000 0.129412 0.000000
0.000000 0.270588 0.000000
0.133333 0.270588 0.000000
0.270588 0.270588 0.000000
0.411765 0.274510 0.000000
0.568627 0.282353 0.000000
0.729412 0.290196 0.000000
0.886275 0.294118 0.000000
1.000000 0.290196 0.000000
1.000000 0.286275 0.000000
0.000000 0.419608 0.000000
0.129412 0.419608 0.000000
0.278431 0.423529 0.000000
0.427451 0.427451 0.000000
0.584314 0.435294 0.000000
0.737255 0.443137 0.000000
0.886275 0.443137 0.000000
1.000000 0.447059 0.000000
1.000000 0.439216 0.000000
0.000000 0.588235 0.000000
0.117647 0.592157 0.000000
0.286275 0.588235 0.000000
0.439216 0.592157 0.000000
0.592157 0.592157 0.000000
0.737255 0.592157 0.000000
0.886275 0.592157 0.000000
1.000000 0.588235 0.000000
1.000000 0.580392 0.000000
0.000000 0.737255 0.000000
0.090196 0.741176 0.000000
0.278431 0.737255 0.000000
0.439216 0.737255 0.000000
0.592157 0.741176 0.000000
0.741176 0.741176 0.000000
0.890196 0.741176 0.000000
1.000000 0.733333 0.000000
1.000000 0.721569 0.000000
0.000000 0.886275 0.000000
0.070588 0.886275 0.000000
0.270588 0.882353 0.000000
0.435294 0.886275 0.000000
0.584314 0.882353 0.000000
0.733333 0.882353 0.000000
0.878431 0.878431 0.000000
1.000000 0.878431 0.000000
1.000000 0.854902 0.000000
0.000000 1.000000 0.000000
0.109804 1.000000 0.000000
0.278431 1.000000 0.000000
0.431373 1.000000 0.000000
0.576471 1.000000 0.000000
0.717647 1.000000 0.000000
0.858824 1.000000 0.000000
0.996078 0.996078 0.000000
1.000000 0.980392 0.070588
0.192157 1.000000 0.192157
0.239216 1.000000 0.192157
0.329412 1.000000 0.196078
0.435294 1.000000 0.200000
0.556863 1.000000 0.211765
0.670588 1.000000 0.219608
0.788235 1.000000 0.247059
0.905882 1.000000 0.282353
1.000000 1.000000 0.305882
0.000000 0.054902 0.129412
0.098039 0.007843 0.129412
0.270588 0.000000 0.133333
0.411765 0.000000 0.133333
0.564706 0.000000 0.129412
0.729412 0.000000 0.125490
0.886275 0.000000 0.121569
1.000000 0.000000 0.117647
1.000000 0.000000 0.113725
0.000000 0.141176 0.129412
0.133333 0.133333 0.133333
0.266667 0.129412 0.129412
0.411765 0.129412 0.129412
0.568627 0.129412 0.129412
0.737255 0.125490 0.125490
0.905882 0.125490 0.125490
1.000000 0.129412 0.129412
1.000000 0.129412 0.129412
0.000000 0.270588 0.129412
0.129412 0.274510 0.129412
0.270588 0.270588 0.129412
0.415686 0.274510 0.125490
0.572549 0.278431 0.121569
0.733333 0.282353 0.113725
0.886275 0.286275 0.109804
1.000000 0.282353 0.105882
1.000000 0.278431 0.105882
0.000000 0.427451 0.121569
0.121569 0.423529 0.121569
0.278431 0.423529 0.121569
0.423529 0.423529 0.117647
0.592157 0.439216 0.113725
0.756863 0.450980 0.109804
0.917647 0.458824 0.113725
1.000000 0.462745 0.129412
1.000000 0.454902 0.145098
0.000000 0.592157 0.094118
0.094118 0.588235 0.094118
0.278431 0.588235 0.090196
0.439216 0.592157 0.094118
0.596078 0.596078 0.090196
0.737255 0.592157 0.082353
0.890196 0.592157 0.082353
1.000000 0.592157 0.094118
1.000000 0.580392 0.101961
0.000000 0.737255 0.062745
0.066667 0.737255 0.062745
0.274510 0.737255 0.062745
0.435294 0.737255 0.062745
0.588235 0.737255 0.058824
0.737255 0.737255 0.054902
0.890196 0.737255 0.058824
1.000000 0.729412 0.078431
1.000000 0.717647 0.101961
0.000000 0.882353 0.058824
0.058824 0.886275 0.058824
0.266667 0.882353 0.054902
0.431373 0.882353 0.058824
0.588235 0.882353 0.062745
0.733333 0.882353 0.066667
0.894118 0.894118 0.105882
1.000000 0.894118 0.152941
1.000000 0.866667 0.188235
0.000000 1.000000 0.113725
0.117647 1.000000 0.117647
0.282353 1.000000 0.117647
0.431373 1.000000 0.121569
0.576471 1.000000 0.125490
0.717647 1.000000 0.133333
0.858824 1.000000 0.145098
0.992157 0.992157 0.156863
1.000000 0.976471 0.184314
0.258824 1.000000 0.294118
0.254902 1.000000 0.254902
0.341176 1.000000 0.258824
0.447059 1.000000 0.266667
0.564706 1.000000 0.278431
0.682353 1.000000 0.305882
0.800000 1.000000 0.345098
0.905882 1.000000 0.376471
1.000000 1.000000 0.400000
0.000000 0.133333 0.262745
0.000000 0.074510 0.270588
0.211765 0.019608 0.270588
0.415686 0.000000 0.282353
0.572549 0.000000 0.282353
0.733333 0.000000 0.282353
0.886275 0.000000 0.274510
1.000000 0.000000 0.270588
1.000000 0.000000 0.270588
0.000000 0.211765 0.266667
0.000000 0.180392 0.266667
0.231373 0.137255 0.270588
0.415686 0.125490 0.274510
0.576471 0.109804 0.278431
0.737255 0.074510 0.274510
0.901961 0.070588 0.278431
1.000000 0.094118 0.286275
1.000000 0.098039 0.278431
0.000000 0.282353 0.266667
0.109804 0.282353 0.270588
0.270588 0.270588 0.270588
0.419608 0.270588 0.270588
0.580392 0.270588 0.270588
0.737255 0.270588 0.270588
0.886275 0.270588 0.270588
1.000000 0.270588 0.270588
1.000000 0.270588 0.270588
0.000000 0.427451 0.274510
0.094118 0.423529 0.270588
0.274510 0.427451 0.274510
0.427451 0.427451 0.270588
0.592157 0.435294 0.270588
0.752941 0.443137 0.274510
0.917647 0.450980 0.286275
1.000000 0.454902 0.294118
1.000000 0.454902 0.301961
0.000000 0.592157 0.266667
0.011765 0.588235 0.262745
0.266667 0.592157 0.266667
0.431373 0.592157 0.262745
0.592157 0.592157 0.262745
0.741176 0.588235 0.262745
0.894118 0.592157 0.266667
1.000000 0.592157 0.274510
1.000000 0.576471 0.274510
0.000000 0.741176 0.262745
0.000000 0.741176 0.262745
0.262745 0.741176 0.262745
0.431373 0.741176 0.262745
0.588235 0.741176 0.262745
0.737255 0.737255 0.262745
0.886275 0.737255 0.262745
1.000000 0.733333 0.274510
1.000000 0.717647 0.282353
0.000000 0.882353 0.266667
0.047059 0.882353 0.266667
0.270588 0.886275 0.270588
0.431373 0.882353 0.266667
0.584314 0.882353 0.270588
0.737255 0.886275 0.278431
0.898039 0.898039 0.298039
1.000000 0.898039 0.325490
1.000000 0.866667 0.333333
0.000000 1.000000 0.294118
0.149020 1.000000 0.294118
0.294118 1.000000 0.294118
0.439216 1.000000 0.298039
0.584314 1.000000 0.301961
0.717647 1.000000 0.301961
0.858824 1.000000 0.305882
0.996078 0.996078 0.317647
1.000000 0.976471 0.329412
0.329412 1.000000 0.411765
0.317647 1.000000 0.380392
0.380392 1.000000 0.380392
0.478431 1.000000 0.392157
0.588235 1.000000 0.403922
0.694118 1.000000 0.419608
0.803922 1.000000 0.443137
0.913725 1.000000 0.474510
1.000000 1.000000 0.490196
0.000000 0.223529 0.411765
0.000000 0.188235 0.415686
0.000000 0.078431 0.419608
0.337255 0.035294 0.419608
0.572549 0.000000 0.447059
0.733333 0.000000 0.435294
0.886275 0.000000 0.431373
1.000000 0.000000 0.431373
1.000000 0.000000 0.427451
0.000000 0.278431 0.411765
0.000000 0.254902 0.415686
0.000000 0.164706 0.419608
0.349020 0.145098 0.419608
0.572549 0.105882 0.443137
0.733333 0.066667 0.435294
0.894118 0.039216 0.439216
1.000000 0.058824 0.439216
1.000000 0.082353 0.431373
0.000000 0.376471 0.415686
0.000000 0.364706 0.415686
0.176471 0.325490 0.423529
0.376471 0.278431 0.423529
0.584314 0.266667 0.431373
0.741176 0.258824 0.431373
0.894118 0.258824 0.431373
1.000000 0.266667 0.431373
1.000000 0.274510 0.431373
0.000000 0.447059 0.419608
0.000000 0.447059 0.419608
0.254902 0.439216 0.423529
0.427451 0.427451 0.427451
0.592157 0.427451 0.427451
0.749020 0.435294 0.435294
0.909804 0.447059 0.447059
1.000000 0.454902 0.454902
1.000000 0.466667 0.466667
0.000000 0.592157 0.431373
0.000000 0.592157 0.431373
0.250980 0.596078 0.431373
0.427451 0.592157 0.427451
0.592157 0.592157 0.427451
0.745098 0.592157 0.431373
0.890196 0.588235 0.431373
1.000000 0.588235 0.435294
1.000000 0.584314 0.439216
0.000000 0.741176 0.431373
0.000000 0.741176 0.431373
0.262745 0.741176 0.431373
0.431373 0.741176 0.431373
0.592157 0.741176 0.435294
0.741176 0.741176 0.435294
0.886275 0.737255 0.435294
1.000000 0.733333 0.443137
1.000000 0.721569 0.447059
0.000000 0.886275 0.439216
0.117647 0.886275 0.443137
0.286275 0.882353 0.439216
0.443137 0.882353 0.443137
0.592157 0.882353 0.443137
0.737255 0.882353 0.447059
0.890196 0.890196 0.462745
1.000000 0.890196 0.478431
1.000000 0.866667 0.482353
0.149020 1.000000 0.458824
0.215686 1.000000 0.458824
0.333333 1.000000 0.458824
0.462745 1.000000 0.462745
0.596078 1.000000 0.462745
0.725490 1.000000 0.462745
0.858824 0.996078 0.466667
0.996078 0.996078 0.474510
1.000000 0.972549 0.482353
0.384314 1.000000 0.525490
0.372549 1.000000 0.505882
0.431373 1.000000 0.509804
0.509804 1.000000 0.509804
0.611765 1.000000 0.521569
0.713725 1.000000 0.537255
0.815686 1.000000 0.552941
0.917647 1.000000 0.576471
1.000000 1.000000 0.588235
0.000000 0.317647 0.576471
0.000000 0.294118 0.576471
0.000000 0.215686 0.580392
0.070588 0.109804 0.584314
0.474510 0.047059 0.588235
0.729412 0.000000 0.619608
0.886275 0.000000 0.596078
1.000000 0.000000 0.588235
1.000000 0.000000 0.580392
0.000000 0.360784 0.576471
0.000000 0.341176 0.576471
0.000000 0.278431 0.584314
0.105882 0.184314 0.588235
0.482353 0.156863 0.588235
0.733333 0.062745 0.615686
0.901961 0.047059 0.603922
1.000000 0.086275 0.600000
1.000000 0.121569 0.588235
0.000000 0.450980 0.572549
0.000000 0.439216 0.576471
0.000000 0.392157 0.580392
0.164706 0.301961 0.592157
0.501961 0.286275 0.588235
0.737255 0.258824 0.607843
0.890196 0.258824 0.588235
1.000000 0.266667 0.584314
1.000000 0.290196 0.588235
0.000000 0.545098 0.580392
0.000000 0.541176 0.580392
0.000000 0.533333 0.580392
0.337255 0.482353 0.588235
0.537255 0.435294 0.592157
0.752941 0.439216 0.603922
0.909804 0.454902 0.607843
1.000000 0.474510 0.615686
1.000000 0.498039 0.627451
0.000000 0.619608 0.584314
0.000000 0.619608 0.584314
0.207843 0.615686 0.588235
0.419608 0.607843 0.588235
0.596078 0.596078 0.596078
0.741176 0.592157 0.592157
0.886275 0.596078 0.596078
1.000000 0.600000 0.600000
1.000000 0.600000 0.600000
0.000000 0.741176 0.592157
0.011765 0.741176 0.592157
0.270588 0.737255 0.592157
0.443137 0.737255 0.592157
0.592157 0.737255 0.592157
0.737255 0.737255 0.596078
0.886275 0.741176 0.600000
1.000000 0.737255 0.600000
1.000000 0.733333 0.603922
0.015686 0.882353 0.596078
0.164706 0.882353 0.596078
0.313725 0.882353 0.596078
0.454902 0.882353 0.596078
0.600000 0.882353 0.600000
0.737255 0.882353 0.600000
0.886275 0.890196 0.611765
1.000000 0.886275 0.623529
1.000000 0.866667 0.623529
0.235294 1.000000 0.607843
0.278431 1.000000 0.607843
0.368627 1.000000 0.607843
0.486275 1.000000 0.611765
0.611765 1.000000 0.611765
0.737255 1.000000 0.615686
0.866667 0.996078 0.615686
0.992157 0.992157 0.615686
1.000000 0.968627 0.627451
0.454902 1.000000 0.647059
0.458824 1.000000 0.643137
0.498039 1.000000 0.639216
0.564706 1.000000 0.643137
0.650980 1.000000 0.650980
0.741176 1.000000 0.662745
0.835294 1.000000 0.678431
0.921569 1.000000 0.690196
1.000000 1.000000 0.701961
0.000000 0.403922 0.721569
0.000000 0.384314 0.721569
0.000000 0.333333 0.729412
0.000000 0.196078 0.733333
0.278431 0.141176 0.737255
0.596078 0.078431 0.737255
0.858824 0.000000 0.760784
1.000000 0.000000 0.760784
1.000000 0.000000 0.725490
0.000000 0.443137 0.733333
0.000000 0.427451 0.729412
0.000000 0.376471 0.733333
0.000000 0.266667 0.741176
0.294118 0.207843 0.749020
0.619608 0.184314 0.756863
0.890196 0.105882 0.784314
1.000000 0.133333 0.780392
1.000000 0.196078 0.749020
0.000000 0.517647 0.721569
0.000000 0.501961 0.721569
0.000000 0.462745 0.725490
0.000000 0.384314 0.733333
0.321569 0.317647 0.737255
0.623529 0.305882 0.745098
0.894118 0.270588 0.776471
1.000000 0.282353 0.749020
1.000000 0.309804 0.733333
0.000000 0.639216 0.745098
0.000000 0.623529 0.737255
0.000000 0.603922 0.737255
0.180392 0.556863 0.749020
0.400000 0.474510 0.760784
0.674510 0.478431 0.764706
0.917647 0.474510 0.792157
1.000000 0.505882 0.776471
1.000000 0.537255 0.772549
0.000000 0.705882 0.733333
0.000000 0.698039 0.725490
0.000000 0.694118 0.729412
0.337255 0.690196 0.733333
0.533333 0.647059 0.741176
0.698039 0.611765 0.749020
0.898039 0.615686 0.756863
1.000000 0.623529 0.752941
1.000000 0.627451 0.749020
0.000000 0.772549 0.729412
0.000000 0.768627 0.729412
0.227451 0.768627 0.733333
0.419608 0.760784 0.733333
0.588235 0.752941 0.733333
0.737255 0.737255 0.737255
0.886275 0.749020 0.749020
1.000000 0.752941 0.752941
1.000000 0.749020 0.749020
0.129412 0.894118 0.749020
0.188235 0.886275 0.741176
0.325490 0.886275 0.741176
0.470588 0.886275 0.745098
0.623529 0.890196 0.752941
0.760784 0.894118 0.760784
0.898039 0.898039 0.768627
1.000000 0.901961 0.784314
1.000000 0.886275 0.784314
0.254902 1.000000 0.741176
0.305882 1.000000 0.741176
0.392157 1.000000 0.741176
0.513725 1.000000 0.745098
0.639216 1.000000 0.752941
0.752941 1.000000 0.752941
0.878431 1.000000 0.760784
0.996078 0.996078 0.764706
1.000000 0.964706 0.768627
0.588235 1.000000 0.784314
0.572549 1.000000 0.772549
0.611765 1.000000 0.780392
0.674510 1.000000 0.792157
0.737255 1.000000 0.796078
0.803922 1.000000 0.803922
0.878431 1.000000 0.819608
0.941176 1.000000 0.831373
1.000000 1.000000 0.831373
0.000000 0.490196 0.862745
0.000000 0.478431 0.866667
0.000000 0.439216 0.870588
0.000000 0.352941 0.874510
0.000000 0.207843 0.882353
0.407843 0.180392 0.886275
0.725490 0.141176 0.890196
0.968627 0.066667 0.894118
1.000000 0.000000 0.901961
0.000000 0.525490 0.878431
0.000000 0.509804 0.878431
0.000000 0.474510 0.882353
0.000000 0.400000 0.886275
0.000000 0.262745 0.894118
0.427451 0.250980 0.901961
0.741176 0.227451 0.905882
0.992157 0.207843 0.913725
1.000000 0.207843 0.917647
0.000000 0.584314 0.870588
0.000000 0.572549 0.866667
0.000000 0.541176 0.866667
0.000000 0.478431 0.874510
0.000000 0.368627 0.890196
0.447059 0.349020 0.890196
0.745098 0.337255 0.894118
0.992157 0.321569 0.905882
1.000000 0.329412 0.898039
0.000000 0.701961 0.886275
0.000000 0.686275 0.878431
0.000000 0.662745 0.882353
0.000000 0.619608 0.890196
0.168627 0.545098 0.898039
0.521569 0.509804 0.905882
0.796078 0.517647 0.913725
1.000000 0.517647 0.941176
1.000000 0.541176 0.913725
0.000000 0.788235 0.874510
0.000000 0.784314 0.870588
0.000000 0.772549 0.870588
0.274510 0.756863 0.878431
0.439216 0.701961 0.886275
0.576471 0.635294 0.894118
0.811765 0.635294 0.898039
1.000000 0.631373 0.917647
1.000000 0.647059 0.886275
0.000000 0.847059 0.866667
0.000000 0.847059 0.870588
0.000000 0.843137 0.866667
0.309804 0.839216 0.870588
0.525490 0.831373 0.870588
0.686275 0.792157 0.882353
0.847059 0.764706 0.894118
1.000000 0.764706 0.894118
1.000000 0.768627 0.882353
0.023529 0.933333 0.886275
0.141176 0.929412 0.878431
0.301961 0.925490 0.878431
0.466667 0.921569 0.882353
0.623529 0.917647 0.890196
0.768627 0.913725 0.898039
0.905882 0.905882 0.905882
1.000000 0.913725 0.913725
1.000000 0.917647 0.917647
0.325490 1.000000 0.878431
0.349020 1.000000 0.878431
0.423529 1.000000 0.874510
0.537255 1.000000 0.878431
0.666667 1.000000 0.886275
0.788235 1.000000 0.894118
0.898039 1.000000 0.898039
1.000000 1.000000 0.901961
1.000000 0.972549 0.909804
0.643137 1.000000 0.874510
0.627451 1.000000 0.866667
0.662745 1.000000 0.870588
0.733333 1.000000 0.886275
0.819608 1.000000 0.905882
0.898039 1.000000 0.929412
0.941176 1.000000 0.941176
0.972549 1.000000 0.945098
1.000000 1.000000 0.937255
0.000000 0.564706 0.992157
0.000000 0.556863 0.996078
0.000000 0.525490 0.996078
0.000000 0.462745 1.000000
0.000000 0.349020 1.000000
0.000000 0.254902 1.000000
0.541176 0.247059 1.000000
0.835294 0.227451 1.000000
1.000000 0.203922 1.000000
0.000000 0.596078 1.000000
0.000000 0.584314 1.000000
0.000000 0.552941 1.000000
0.000000 0.501961 1.000000
0.000000 0.400000 1.000000
0.000000 0.309804 1.000000
0.560784 0.309804 1.000000
0.850980 0.313725 1.000000
1.000000 0.301961 1.000000
0.000000 0.647059 0.996078
0.000000 0.639216 0.996078
0.000000 0.611765 1.000000
0.000000 0.564706 1.000000
0.000000 0.482353 1.000000
0.000000 0.396078 1.000000
0.580392 0.400000 1.000000
0.854902 0.400000 1.000000
1.000000 0.392157 1.000000
0.000000 0.745098 1.000000
0.000000 0.737255 1.000000
0.000000 0.717647 1.000000
0.000000 0.682353 1.000000
0.000000 0.623529 1.000000
0.250980 0.541176 1.000000
0.647059 0.556863 1.000000
0.890196 0.564706 1.000000
1.000000 0.572549 1.000000
0.000000 0.839216 0.992157
0.000000 0.835294 0.992157
0.000000 0.823529 0.992157
0.015686 0.800000 0.996078
0.317647 0.756863 1.000000
0.466667 0.694118 1.000000
0.690196 0.670588 1.000000
0.905882 0.674510 1.000000
1.000000 0.666667 1.000000
0.000000 0.913725 0.984314
0.000000 0.913725 0.988235
0.000000 0.909804 0.988235
0.243137 0.901961 0.988235
0.513725 0.882353 0.992157
0.635294 0.839216 1.000000
0.749020 0.788235 1.000000
0.937255 0.792157 1.000000
1.000000 0.784314 1.000000
0.000000 0.984314 0.996078
0.000000 0.984314 0.996078
0.235294 0.976471 0.992157
0.431373 0.976471 0.996078
0.600000 0.972549 0.996078
0.752941 0.968627 1.000000
0.878431 0.945098 1.000000
0.980392 0.925490 1.000000
1.000000 0.933333 0.988235
0.352941 1.000000 0.988235
0.364706 1.000000 0.988235
0.439216 1.000000 0.984314
0.552941 1.000000 0.988235
0.674510 1.000000 0.988235
0.800000 1.000000 0.992157
0.917647 1.000000 0.996078
1.000000 1.000000 1.000000
1.000000 1.000000 1.000000
0.690196 1.000000 0.952941
0.682353 1.000000 0.952941
0.713725 1.000000 0.956863
0.776471 1.000000 0.956863
0.854902 1.000000 0.964706
0.937255 1.000000 0.980392
1.000000 1.000000 1.000000
1.000000 1.000000 1.000000
1.000000 1.000000 1.000000
0.000000 0.607843 1.000000
0.000000 0.596078 1.000000
0.000000 0.576471 1.000000
0.000000 0.533333 1.000000
0.000000 0.462745 1.000000
0.000000 0.352941 1.000000
0.247059 0.345098 1.000000
0.639216 0.364706 1.000000
0.878431 0.376471 1.000000
0.000000 0.631373 1.000000
0.000000 0.619608 1.000000
0.000000 0.600000 1.000000
0.000000 0.564706 1.000000
0.000000 0.501961 1.000000
0.000000 0.403922 1.000000
0.301961 0.400000 1.000000
0.658824 0.423529 1.000000
0.882353 0.439216 1.000000
0.000000 0.674510 1.000000
0.000000 0.666667 1.000000
0.000000 0.650980 1.000000
0.000000 0.611765 1.000000
0.000000 0.564706 1.000000
0.000000 0.490196 1.000000
0.364706 0.470588 1.000000
0.678431 0.490196 1.000000
0.894118 0.501961 1.000000
0.000000 0.760784 1.000000
0.000000 0.749020 1.000000
0.000000 0.737255 1.000000
0.000000 0.713725 1.000000
0.000000 0.682353 1.000000
0.235294 0.631373 1.000000
0.509804 0.607843 1.000000
0.737255 0.623529 1.000000
0.913725 0.639216 1.000000
0.000000 0.847059 1.000000
0.000000 0.843137 1.000000
0.000000 0.827451 1.000000
0.176471 0.811765 1.000000
0.352941 0.784314 1.000000
0.478431 0.749020 1.000000
0.600000 0.709804 1.000000
0.780392 0.721569 1.000000
0.929412 0.725490 1.000000
0.000000 0.909804 1.000000
0.000000 0.909804 1.000000
0.258824 0.905882 1.000000
0.447059 0.898039 1.000000
0.580392 0.886275 1.000000
0.654902 0.858824 1.000000
0.733333 0.831373 1.000000
0.843137 0.831373 1.000000
0.956863 0.831373 1.000000
0.419608 0.968627 1.000000
0.403922 0.964706 1.000000
0.470588 0.964706 1.000000
0.584314 0.964706 1.000000
0.709804 0.964706 1.000000
0.831373 0.960784 1.000000
0.894118 0.949020 1.000000
0.933333 0.945098 1.000000
0.984314 0.945098 1.000000
0.560784 1.000000 1.000000
0.552941 1.000000 1.000000
0.596078 1.000000 1.000000
0.674510 0.996078 1.000000
0.776471 0.996078 1.000000
0.878431 0.996078 1.000000
0.964706 0.996078 1.000000
1.000000 1.000000 1.000000
1.000000 1.000000 1.000000
0.737255 1.000000 0.996078
0.729412 1.000000 0.996078
0.764706 1.000000 0.996078
0.827451 1.000000 1.000000
0.901961 1.000000 1.000000
0.968627 1.000000 1.000000
1.000000 1.000000 1.000000
1.000000 1.000000 1.000000
1.000000 1.000000 1.000000
