assets/luts-cube/lut-4.cube
#Generated by lutCreator.js
#Coded by SirSerch
#https://github.com/SirSerch/LutCreatorJs
TITLE lutCreatorJs_25
LUT_3D_SIZE 25
0.000000 0.000000 0.000000
0.196078 0.000000 0.000000
0.360784 0.000000 0.000000
0.533333 0.000000 0.000000
0.682353 0.000000 0.000000
0.796078 0.000000 0.000000
0.890196 0.000000 0.000000
0.964706 0.000000 0.000000
1.000000 0.000000 0.000000
1.000000 0.000000 0.000000
1.000000 0.000000 0.000000
1.000000 0.000000 0.000000
1.000000 0.007843 0.000000
1.000000 0.058824 0.000000
1.000000 0.094118 0.000000
1.000000 0.117647 0.000000
1.000000 0.141176 0.000000
1.000000 0.160784 0.000000
1.000000 0.180392 0.015686
1.000000 0.196078 0.066667
1.000000 0.207843 0.105882
1.000000 0.219608 0.133333
1.000000 0.235294 0.156863
1.000000 0.243137 0.176471
1.000000 0.250980 0.196078
0.086275 0.188235 0.000000
0.250980 0.200000 0.000000
0.400000 0.219608 0.000000
0.552941 0.227451 0.000000
0.694118 0.219608 0.000000
0.796078 0.211765 0.000000
0.894118 0.196078 0.000000
0.964706 0.180392 0.000000
1.000000 0.168627 0.000000
1.000000 0.160784 0.000000
1.000000 0.152941 0.000000
1.000000 0.152941 0.000000
1.000000 0.152941 0.000000
1.000000 0.160784 0.000000
1.000000 0.172549 0.000000
1.000000 0.184314 0.000000
1.000000 0.192157 0.000000
1.000000 0.203922 0.000000
1.000000 0.215686 0.035294
1.000000 0.227451 0.082353
1.000000 0.239216 0.117647
1.000000 0.243137 0.141176
1.000000 0.250980 0.160784
1.000000 0.258824 0.180392
1.000000 0.270588 0.200000
0.168627 0.337255 0.000000
0.309804 0.337255 0.000000
0.427451 0.345098 0.000000
0.572549 0.349020 0.000000
0.701961 0.341176 0.000000
0.800000 0.325490 0.000000
0.894118 0.309804 0.000000
0.964706 0.294118 0.000000
1.000000 0.278431 0.000000
1.000000 0.262745 0.000000
1.000000 0.250980 0.000000
1.000000 0.243137 0.000000
1.000000 0.239216 0.000000
1.000000 0.235294 0.000000
1.000000 0.235294 0.000000
1.000000 0.239216 0.000000
1.000000 0.239216 0.000000
1.000000 0.243137 0.000000
1.000000 0.250980 0.050980
1.000000 0.258824 0.094118
1.000000 0.262745 0.125490
1.000000 0.270588 0.149020
1.000000 0.274510 0.172549
1.000000 0.282353 0.192157
1.000000 0.290196 0.207843
0.250980 0.474510 0.000000
0.360784 0.470588 0.000000
0.458824 0.470588 0.000000
0.588235 0.474510 0.000000
0.713725 0.466667 0.000000
0.807843 0.454902 0.000000
0.894118 0.431373 0.000000
0.964706 0.411765 0.000000
1.000000 0.388235 0.000000
1.000000 0.368627 0.000000
1.000000 0.356863 0.000000
1.000000 0.337255 0.000000
1.000000 0.325490 0.000000
1.000000 0.313725 0.000000
1.000000 0.309804 0.000000
1.000000 0.301961 0.000000
1.000000 0.301961 0.000000
1.000000 0.298039 0.031373
1.000000 0.301961 0.078431
1.000000 0.301961 0.113725
1.000000 0.301961 0.137255
1.000000 0.301961 0.160784
1.000000 0.309804 0.184314
1.000000 0.313725 0.203922
1.000000 0.313725 0.219608
0.333333 0.588235 0.000000
0.415686 0.588235 0.000000
0.494118 0.584314 0.000000
0.600000 0.580392 0.000000
0.713725 0.576471 0.000000
0.811765 0.568627 0.000000
0.890196 0.541176 0.000000
0.956863 0.517647 0.000000
1.000000 0.494118 0.000000
1.000000 0.466667 0.000000
1.000000 0.447059 0.000000
1.000000 0.427451 0.000000
1.000000 0.411765 0.000000
1.000000 0.396078 0.000000
1.000000 0.380392 0.000000
1.000000 0.376471 0.000000
1.000000 0.364706 0.015686
1.000000 0.356863 0.070588
1.000000 0.352941 0.105882
1.000000 0.352941 0.137255
1.000000 0.349020 0.160784
1.000000 0.349020 0.180392
1.000000 0.345098 0.196078
1.000000 0.345098 0.215686
1.000000 0.349020 0.231373
0.403922 0.670588 0.000000
0.466667 0.666667 0.000000
0.533333 0.670588 0.000000
0.619608 0.666667 0.000000
0.713725 0.658824 0.000000
0.803922 0.650980 0.000000
0.890196 0.631373 0.000000
0.956863 0.607843 0.000000
1.000000 0.580392 0.000000
1.000000 0.552941 0.000000
1.000000 0.533333 0.000000
1.000000 0.505882 0.000000
1.000000 0.486275 0.000000
1.000000 0.466667 0.000000
1.000000 0.450980 0.000000
1.000000 0.435294 0.003922
1.000000 0.423529 0.066667
1.000000 0.411765 0.105882
1.000000 0.403922 0.129412
1.000000 0.396078 0.156863
1.000000 0.392157 0.180392
1.000000 0.388235 0.196078
1.000000 0.384314 0.215686
1.000000 0.380392 0.231373
1.000000 0.380392 0.247059
0.474510 0.745098 0.000000
0.517647 0.745098 0.000000
0.568627 0.745098 0.000000
0.635294 0.737255 0.000000
0.717647 0.737255 0.000000
0.803922 0.733333 0.000000
0.882353 0.717647 0.000000
0.949020 0.694118 0.000000
1.000000 0.666667 0.000000
1.000000 0.635294 0.000000
1.000000 0.611765 0.000000
1.000000 0.588235 0.000000
1.000000 0.556863 0.000000
1.000000 0.541176 0.000000
1.000000 0.521569 0.011765
1.000000 0.501961 0.066667
1.000000 0.486275 0.105882
1.000000 0.474510 0.141176
1.000000 0.462745 0.164706
1.000000 0.450980 0.184314
1.000000 0.443137 0.203922
1.000000 0.435294 0.219608
1.000000 0.427451 0.235294
1.000000 0.423529 0.250980
1.000000 0.419608 0.262745
0.521569 0.800000 0.000000
0.556863 0.800000 0.000000
0.596078 0.800000 0.000000
0.654902 0.800000 0.000000
0.725490 0.796078 0.000000
0.796078 0.788235 0.000000
0.878431 0.784314 0.000000
0.937255 0.764706 0.000000
1.000000 0.741176 0.000000
1.000000 0.709804 0.000000
1.000000 0.678431 0.000000
1.000000 0.650980 0.000000
1.000000 0.623529 0.000000
1.000000 0.600000 0.011765
1.000000 0.580392 0.078431
1.000000 0.560784 0.113725
1.000000 0.541176 0.145098
1.000000 0.525490 0.168627
1.000000 0.509804 0.188235
1.000000 0.498039 0.207843
1.000000 0.490196 0.227451
1.000000 0.478431 0.243137
1.000000 0.470588 0.258824
1.000000 0.466667 0.274510
1.000000 0.458824 0.286275
0.564706 0.850980 0.000000
0.592157 0.850980 0.000000
0.623529 0.850980 0.000000
0.670588 0.847059 0.000000
0.729412 0.847059 0.000000
0.788235 0.839216 0.000000
0.866667 0.839216 0.000000
0.933333 0.831373 0.000000
0.984314 0.803922 0.000000
1.000000 0.776471 0.000000
1.000000 0.749020 0.000000
1.000000 0.717647 0.000000
1.000000 0.690196 0.031373
1.000000 0.666667 0.090196
1.000000 0.643137 0.129412
1.000000 0.619608 0.156863
1.000000 0.600000 0.180392
1.000000 0.584314 0.203922
1.000000 0.564706 0.219608
1.000000 0.549020 0.235294
1.000000 0.537255 0.254902
1.000000 0.529412 0.270588
1.000000 0.517647 0.282353
1.000000 0.509804 0.294118
1.000000 0.501961 0.305882
0.600000 0.890196 0.000000
0.619608 0.890196 0.000000
0.647059 0.890196 0.000000
0.682353 0.886275 0.000000
0.733333 0.886275 0.000000
0.788235 0.886275 0.000000
0.847059 0.878431 0.000000
0.909804 0.874510 0.000000
0.976471 0.862745 0.000000
1.000000 0.839216 0.000000
1.000000 0.811765 0.000000
1.000000 0.780392 0.050980
1.000000 0.752941 0.109804
1.000000 0.725490 0.141176
1.000000 0.698039 0.172549
1.000000 0.678431 0.196078
1.000000 0.654902 0.215686
1.000000 0.635294 0.235294
1.000000 0.619608 0.250980
1.000000 0.603922 0.270588
1.000000 0.588235 0.282353
1.000000 0.576471 0.294118
1.000000 0.564706 0.309804
1.000000 0.552941 0.321569
1.000000 0.545098 0.333333
0.627451 0.921569 0.000000
0.643137 0.917647 0.000000
0.666667 0.921569 0.000000
0.698039 0.917647 0.000000
0.737255 0.913725 0.000000
0.780392 0.909804 0.000000
0.835294 0.909804 0.000000
0.894118 0.905882 0.000000
0.952941 0.901961 0.000000
1.000000 0.886275 0.000000
1.000000 0.858824 0.074510
1.000000 0.831373 0.121569
1.000000 0.803922 0.160784
1.000000 0.776471 0.184314
1.000000 0.749020 0.207843
1.000000 0.725490 0.231373
1.000000 0.701961 0.247059
1.000000 0.682353 0.266667
1.000000 0.662745 0.278431
1.000000 0.647059 0.294118
1.000000 0.631373 0.309804
1.000000 0.615686 0.321569
1.000000 0.603922 0.337255
1.000000 0.596078 0.349020
1.000000 0.584314 0.360784
0.650980 0.945098 0.121569
0.662745 0.945098 0.121569
0.678431 0.941176 0.117647
0.705882 0.941176 0.121569
0.741176 0.937255 0.121569
0.776471 0.937255 0.121569
0.827451 0.937255 0.125490
0.870588 0.929412 0.125490
0.929412 0.925490 0.129412
0.984314 0.921569 0.133333
1.000000 0.909804 0.149020
1.000000 0.882353 0.184314
1.000000 0.850980 0.207843
1.000000 0.823529 0.231373
1.000000 0.800000 0.250980
1.000000 0.776471 0.266667
1.000000 0.752941 0.286275
1.000000 0.729412 0.298039
1.000000 0.709804 0.313725
1.000000 0.694118 0.325490
1.000000 0.678431 0.341176
1.000000 0.662745 0.352941
1.000000 0.647059 0.364706
1.000000 0.635294 0.376471
1.000000 0.627451 0.388235
0.670588 0.964706 0.207843
0.682353 0.960784 0.207843
0.694118 0.960784 0.207843
0.717647 0.960784 0.211765
0.745098 0.956863 0.207843
0.776471 0.956863 0.211765
0.815686 0.952941 0.211765
0.858824 0.949020 0.211765
0.905882 0.949020 0.215686
0.956863 0.941176 0.215686
1.000000 0.937255 0.219608
1.000000 0.921569 0.231373
1.000000 0.894118 0.254902
1.000000 0.866667 0.270588
1.000000 0.843137 0.290196
1.000000 0.819608 0.305882
1.000000 0.800000 0.321569
1.000000 0.776471 0.337255
1.000000 0.756863 0.349020
1.000000 0.737255 0.360784
1.000000 0.717647 0.372549
1.000000 0.705882 0.384314
1.000000 0.690196 0.396078
1.000000 0.678431 0.407843
1.000000 0.666667 0.419608
0.686275 0.976471 0.266667
0.698039 0.976471 0.270588
0.705882 0.972549 0.266667
0.725490 0.972549 0.270588
0.752941 0.972549 0.270588
0.776471 0.968627 0.270588
0.811765 0.968627 0.274510
0.847059 0.964706 0.274510
0.886275 0.960784 0.274510
0.937255 0.960784 0.278431
0.980392 0.956863 0.282353
1.000000 0.949020 0.282353
1.000000 0.929412 0.294118
1.000000 0.905882 0.313725
1.000000 0.878431 0.325490
1.000000 0.858824 0.341176
1.000000 0.835294 0.356863
1.000000 0.811765 0.368627
1.000000 0.796078 0.380392
1.000000 0.772549 0.392157
1.000000 0.756863 0.403922
1.000000 0.741176 0.415686
1.000000 0.729412 0.427451
1.000000 0.713725 0.435294
1.000000 0.701961 0.447059
0.701961 0.984314 0.329412
0.713725 0.988235 0.329412
0.721569 0.984314 0.329412
0.737255 0.984314 0.329412
0.756863 0.984314 0.333333
0.776471 0.980392 0.329412
0.807843 0.980392 0.329412
0.839216 0.980392 0.333333
0.874510 0.972549 0.333333
0.913725 0.972549 0.337255
0.956863 0.968627 0.341176
1.000000 0.964706 0.345098
1.000000 0.960784 0.345098
1.000000 0.941176 0.356863
1.000000 0.913725 0.368627
1.000000 0.898039 0.384314
1.000000 0.874510 0.396078
1.000000 0.850980 0.407843
1.000000 0.831373 0.415686
1.000000 0.811765 0.427451
1.000000 0.796078 0.439216
1.000000 0.780392 0.450980
1.000000 0.764706 0.458824
1.000000 0.752941 0.470588
1.000000 0.737255 0.478431
0.717647 0.996078 0.380392
0.725490 0.996078 0.380392
0.733333 0.996078 0.380392
0.745098 0.996078 0.380392
0.760784 0.992157 0.380392
0.780392 0.992157 0.380392
0.807843 0.988235 0.380392
0.835294 0.988235 0.384314
0.866667 0.988235 0.384314
0.901961 0.980392 0.384314
0.937255 0.980392 0.388235
0.976471 0.976471 0.392157
1.000000 0.972549 0.392157
1.000000 0.968627 0.396078
1.000000 0.945098 0.403922
1.000000 0.929412 0.419608
1.000000 0.905882 0.431373
1.000000 0.882353 0.443137
1.000000 0.866667 0.450980
1.000000 0.847059 0.462745
1.000000 0.827451 0.470588
1.000000 0.811765 0.478431
1.000000 0.800000 0.490196
1.000000 0.784314 0.498039
1.000000 0.772549 0.509804
0.733333 1.000000 0.427451
0.737255 1.000000 0.427451
0.745098 1.000000 0.431373
0.752941 1.000000 0.427451
0.768627 1.000000 0.431373
0.788235 1.000000 0.431373
0.807843 1.000000 0.431373
0.831373 1.000000 0.435294
0.858824 0.992157 0.435294
0.890196 0.992157 0.439216
0.917647 0.988235 0.435294
0.952941 0.988235 0.439216
0.988235 0.984314 0.443137
1.000000 0.980392 0.447059
1.000000 0.976471 0.447059
1.000000 0.956863 0.454902
1.000000 0.937255 0.466667
1.000000 0.913725 0.474510
1.000000 0.898039 0.486275
1.000000 0.878431 0.494118
1.000000 0.858824 0.501961
1.000000 0.847059 0.513725
1.000000 0.831373 0.521569
1.000000 0.815686 0.529412
1.000000 0.803922 0.537255
0.749020 1.000000 0.474510
0.752941 1.000000 0.478431
0.760784 1.000000 0.478431
0.768627 1.000000 0.478431
0.780392 1.000000 0.478431
0.792157 1.000000 0.478431
0.807843 1.000000 0.478431
0.827451 1.000000 0.478431
0.850980 1.000000 0.482353
0.878431 1.000000 0.482353
0.905882 0.996078 0.482353
0.937255 0.996078 0.486275
0.968627 0.992157 0.486275
0.996078 0.988235 0.486275
1.000000 0.988235 0.494118
1.000000 0.980392 0.494118
1.000000 0.960784 0.501961
1.000000 0.941176 0.509804
1.000000 0.925490 0.521569
1.000000 0.905882 0.529412
1.000000 0.890196 0.537255
1.000000 0.874510 0.545098
1.000000 0.858824 0.552941
1.000000 0.847059 0.560784
1.000000 0.835294 0.572549
0.760784 1.000000 0.517647
0.764706 1.000000 0.517647
0.768627 1.000000 0.517647
0.776471 1.000000 0.517647
0.784314 1.000000 0.517647
0.796078 1.000000 0.517647
0.811765 1.000000 0.517647
0.827451 1.000000 0.517647
0.850980 1.000000 0.521569
0.874510 1.000000 0.525490
0.898039 1.000000 0.525490
0.921569 1.000000 0.525490
0.949020 0.996078 0.525490
0.976471 0.996078 0.529412
1.000000 0.996078 0.529412
1.000000 0.992157 0.533333
1.000000 0.984314 0.537255
1.000000 0.964706 0.541176
1.000000 0.949020 0.549020
1.000000 0.933333 0.560784
1.000000 0.913725 0.564706
1.000000 0.901961 0.572549
1.000000 0.882353 0.580392
1.000000 0.870588 0.588235
1.000000 0.862745 0.596078
0.776471 1.000000 0.560784
0.776471 1.000000 0.556863
0.776471 1.000000 0.556863
0.784314 1.000000 0.556863
0.792157 1.000000 0.560784
0.803922 1.000000 0.560784
0.815686 1.000000 0.560784
0.835294 1.000000 0.564706
0.850980 1.000000 0.564706
0.870588 1.000000 0.564706
0.890196 1.000000 0.564706
0.909804 1.000000 0.564706
0.937255 1.000000 0.568627
0.960784 1.000000 0.568627
0.988235 0.996078 0.568627
1.000000 0.996078 0.572549
1.000000 0.992157 0.572549
1.000000 0.988235 0.576471
1.000000 0.972549 0.584314
1.000000 0.956863 0.592157
1.000000 0.937255 0.596078
1.000000 0.925490 0.603922
1.000000 0.913725 0.611765
1.000000 0.898039 0.615686
1.000000 0.886275 0.627451
0.784314 1.000000 0.600000
0.788235 1.000000 0.600000
0.788235 1.000000 0.596078
0.796078 1.000000 0.600000
0.803922 1.000000 0.600000
0.815686 1.000000 0.603922
0.823529 1.000000 0.600000
0.835294 1.000000 0.600000
0.850980 1.000000 0.600000
0.866667 1.000000 0.600000
0.886275 1.000000 0.603922
0.901961 1.000000 0.603922
0.925490 1.000000 0.603922
0.949020 1.000000 0.607843
0.968627 1.000000 0.607843
0.992157 1.000000 0.611765
1.000000 1.000000 0.611765
1.000000 0.996078 0.615686
1.000000 0.992157 0.619608
1.000000 0.976471 0.623529
1.000000 0.960784 0.631373
1.000000 0.945098 0.635294
1.000000 0.933333 0.639216
1.000000 0.921569 0.647059
1.000000 0.909804 0.654902
0.796078 1.000000 0.631373
0.800000 1.000000 0.635294
0.800000 1.000000 0.635294
0.807843 1.000000 0.635294
0.815686 1.000000 0.635294
0.819608 1.000000 0.635294
0.827451 1.000000 0.635294
0.839216 1.000000 0.635294
0.850980 1.000000 0.635294
0.866667 1.000000 0.639216
0.882353 1.000000 0.639216
0.898039 1.000000 0.639216
0.917647 1.000000 0.643137
0.937255 1.000000 0.643137
0.956863 1.000000 0.643137
0.980392 1.000000 0.647059
1.000000 1.000000 0.647059
1.000000 1.000000 0.650980
1.000000 1.000000 0.650980
1.000000 0.992157 0.654902
1.000000 0.976471 0.658824
1.000000 0.964706 0.666667
1.000000 0.952941 0.670588
1.000000 0.937255 0.674510
1.000000 0.929412 0.682353
0.807843 1.000000 0.670588
0.811765 1.000000 0.674510
0.815686 1.000000 0.674510
0.819608 1.000000 0.674510
0.823529 1.000000 0.670588
0.831373 1.000000 0.674510
0.839216 1.000000 0.674510
0.847059 1.000000 0.674510
0.858824 1.000000 0.674510
0.870588 1.000000 0.678431
0.882353 1.000000 0.674510
0.894118 1.000000 0.678431
0.913725 1.000000 0.678431
0.929412 1.000000 0.678431
0.945098 1.000000 0.678431
0.964706 1.000000 0.682353
0.984314 1.000000 0.686275
1.000000 1.000000 0.682353
1.000000 1.000000 0.686275
1.000000 1.000000 0.690196
1.000000 0.992157 0.694118
1.000000 0.980392 0.694118
1.000000 0.968627 0.701961
1.000000 0.956863 0.705882
1.000000 0.949020 0.713725
0.823529 1.000000 0.705882
0.827451 1.000000 0.705882
0.827451 1.000000 0.705882
0.831373 1.000000 0.705882
0.835294 1.000000 0.705882
0.839216 1.000000 0.705882
0.843137 1.000000 0.705882
0.854902 1.000000 0.709804
0.862745 1.000000 0.705882
0.874510 1.000000 0.709804
0.886275 1.000000 0.709804
0.898039 1.000000 0.713725
0.909804 1.000000 0.713725
0.921569 1.000000 0.713725
0.941176 1.000000 0.717647
0.952941 1.000000 0.713725
0.976471 1.000000 0.717647
0.992157 1.000000 0.717647
1.000000 1.000000 0.721569
1.000000 1.000000 0.721569
1.000000 1.000000 0.721569
1.000000 0.992157 0.725490
1.000000 0.980392 0.733333
1.000000 0.968627 0.733333
1.000000 0.960784 0.737255
0.843137 1.000000 0.745098
0.843137 1.000000 0.745098
0.843137 1.000000 0.745098
0.847059 1.000000 0.745098
0.847059 1.000000 0.745098
0.854902 1.000000 0.745098
0.858824 1.000000 0.745098
0.862745 1.000000 0.745098
0.870588 1.000000 0.745098
0.878431 1.000000 0.745098
0.890196 1.000000 0.749020
0.901961 1.000000 0.752941
0.913725 1.000000 0.752941
0.921569 1.000000 0.749020
0.937255 1.000000 0.752941
0.952941 1.000000 0.756863
0.968627 1.000000 0.756863
0.988235 1.000000 0.760784
1.000000 1.000000 0.760784
1.000000 1.000000 0.760784
1.000000 1.000000 0.764706
1.000000 1.000000 0.764706
1.000000 0.984314 0.768627
1.000000 0.980392 0.776471
1.000000 0.972549 0.780392
0.011765 0.003922 0.101961
0.211765 0.000000 0.109804
0.372549 0.000000 0.109804
0.545098 0.000000 0.078431
0.686275 0.000000 0.050980
0.796078 0.000000 0.023529
0.890196 0.000000 0.000000
0.964706 0.031373 0.000000
1.000000 0.066667 0.000000
1.000000 0.098039 0.000000
1.000000 0.113725 0.000000
1.000000 0.133333 0.000000
1.000000 0.149020 0.000000
1.000000 0.164706 0.000000
1.000000 0.176471 0.015686
1.000000 0.188235 0.050980
1.000000 0.203922 0.086275
1.000000 0.215686 0.109804
1.000000 0.227451 0.129412
1.000000 0.239216 0.152941
1.000000 0.250980 0.172549
1.000000 0.254902 0.188235
1.000000 0.262745 0.203922
1.000000 0.274510 0.219608
1.000000 0.278431 0.231373
0.054902 0.192157 0.086275
0.262745 0.196078 0.078431
0.411765 0.207843 0.066667
0.556863 0.211765 0.039216
0.694118 0.215686 0.003922
0.796078 0.215686 0.000000
0.890196 0.215686 0.000000
0.960784 0.215686 0.000000
1.000000 0.211765 0.000000
1.000000 0.215686 0.000000
1.000000 0.215686 0.000000
1.000000 0.215686 0.000000
1.000000 0.219608 0.000000
1.000000 0.223529 0.000000
1.000000 0.231373 0.027451
1.000000 0.231373 0.062745
1.000000 0.243137 0.094118
1.000000 0.247059 0.117647
1.000000 0.254902 0.137255
1.000000 0.262745 0.156863
1.000000 0.270588 0.176471
1.000000 0.274510 0.192157
1.000000 0.282353 0.211765
1.000000 0.286275 0.223529
1.000000 0.294118 0.239216
0.145098 0.341176 0.031373
0.317647 0.341176 0.027451
0.439216 0.345098 0.007843
0.576471 0.345098 0.000000
0.701961 0.341176 0.000000
0.800000 0.337255 0.000000
0.890196 0.325490 0.000000
0.960784 0.317647 0.000000
1.000000 0.305882 0.000000
1.000000 0.298039 0.000000
1.000000 0.290196 0.000000
1.000000 0.286275 0.000000
1.000000 0.278431 0.000000
1.000000 0.278431 0.003922
1.000000 0.274510 0.039216
1.000000 0.274510 0.074510
1.000000 0.278431 0.101961
1.000000 0.282353 0.125490
1.000000 0.282353 0.145098
1.000000 0.290196 0.164706
1.000000 0.294118 0.184314
1.000000 0.298039 0.200000
1.000000 0.301961 0.215686
1.000000 0.305882 0.227451
1.000000 0.309804 0.243137
0.274510 0.470588 0.000000
0.376471 0.470588 0.000000
0.474510 0.470588 0.000000
0.596078 0.474510 0.000000
0.713725 0.470588 0.000000
0.803922 0.454902 0.000000
0.890196 0.439216 0.000000
0.956863 0.423529 0.000000
1.000000 0.403922 0.000000
1.000000 0.388235 0.000000
1.000000 0.376471 0.000000
1.000000 0.364706 0.000000
1.000000 0.352941 0.000000
1.000000 0.345098 0.019608
1.000000 0.337255 0.058824
1.000000 0.333333 0.086275
1.000000 0.329412 0.113725
1.000000 0.325490 0.137255
1.000000 0.325490 0.156863
1.000000 0.325490 0.176471
1.000000 0.329412 0.196078
1.000000 0.329412 0.207843
1.000000 0.329412 0.223529
1.000000 0.333333 0.239216
1.000000 0.337255 0.254902
0.368627 0.584314 0.000000
0.443137 0.584314 0.000000
0.513725 0.580392 0.000000
0.611765 0.580392 0.000000
0.717647 0.576471 0.000000
0.807843 0.564706 0.000000
0.890196 0.545098 0.000000
0.956863 0.525490 0.000000
1.000000 0.505882 0.000000
1.000000 0.482353 0.000000
1.000000 0.466667 0.000000
1.000000 0.443137 0.000000
1.000000 0.431373 0.003922
1.000000 0.415686 0.043137
1.000000 0.403922 0.082353
1.000000 0.396078 0.109804
1.000000 0.384314 0.129412
1.000000 0.380392 0.152941
1.000000 0.376471 0.172549
1.000000 0.368627 0.188235
1.000000 0.364706 0.203922
1.000000 0.364706 0.219608
1.000000 0.364706 0.235294
1.000000 0.364706 0.247059
1.000000 0.364706 0.262745
0.439216 0.666667 0.000000
0.490196 0.666667 0.000000
0.552941 0.666667 0.000000
0.631373 0.666667 0.000000
0.721569 0.658824 0.000000
0.807843 0.650980 0.000000
0.890196 0.631373 0.000000
0.949020 0.611765 0.000000
1.000000 0.588235 0.000000
1.000000 0.560784 0.000000
1.000000 0.537255 0.000000
1.000000 0.513725 0.000000
1.000000 0.498039 0.031373
1.000000 0.482353 0.074510
1.000000 0.466667 0.105882
1.000000 0.450980 0.129412
1.000000 0.439216 0.149020
1.000000 0.427451 0.168627
1.000000 0.419608 0.188235
1.000000 0.415686 0.207843
1.000000 0.407843 0.219608
1.000000 0.403922 0.235294
1.000000 0.403922 0.250980
1.000000 0.400000 0.262745
1.000000 0.400000 0.278431
0.498039 0.741176 0.000000
0.541176 0.745098 0.000000
0.584314 0.741176 0.000000
0.650980 0.741176 0.000000
0.725490 0.733333 0.000000
0.807843 0.733333 0.000000
0.886275 0.717647 0.000000
0.945098 0.698039 0.000000
1.000000 0.666667 0.000000
1.000000 0.643137 0.000000
1.000000 0.615686 0.000000
1.000000 0.592157 0.015686
1.000000 0.568627 0.070588
1.000000 0.549020 0.101961
1.000000 0.529412 0.133333
1.000000 0.513725 0.152941
1.000000 0.498039 0.176471
1.000000 0.486275 0.196078
1.000000 0.474510 0.207843
1.000000 0.462745 0.223529
1.000000 0.454902 0.239216
1.000000 0.450980 0.254902
1.000000 0.443137 0.266667
1.000000 0.439216 0.278431
1.000000 0.435294 0.294118
0.541176 0.800000 0.000000
0.572549 0.800000 0.000000
0.611765 0.796078 0.000000
0.666667 0.796078 0.000000
0.733333 0.792157 0.000000
0.803922 0.792157 0.000000
0.878431 0.784314 0.000000
0.941176 0.764706 0.000000
0.996078 0.741176 0.000000
1.000000 0.709804 0.000000
1.000000 0.682353 0.000000
1.000000 0.654902 0.058824
1.000000 0.631373 0.101961
1.000000 0.611765 0.133333
1.000000 0.588235 0.156863
1.000000 0.568627 0.176471
1.000000 0.549020 0.196078
1.000000 0.537255 0.215686
1.000000 0.521569 0.231373
1.000000 0.509804 0.243137
1.000000 0.498039 0.258824
1.000000 0.490196 0.274510
1.000000 0.482353 0.286275
1.000000 0.474510 0.298039
1.000000 0.470588 0.309804
0.580392 0.850980 0.000000
0.607843 0.850980 0.000000
0.635294 0.847059 0.000000
0.682353 0.847059 0.000000
0.737255 0.847059 0.000000
0.792157 0.839216 0.000000
0.866667 0.839216 0.000000
0.933333 0.831373 0.000000
0.984314 0.803922 0.000000
1.000000 0.780392 0.000000
1.000000 0.749020 0.050980
1.000000 0.721569 0.105882
1.000000 0.694118 0.141176
1.000000 0.670588 0.164706
1.000000 0.647059 0.184314
1.000000 0.627451 0.203922
1.000000 0.607843 0.223529
1.000000 0.588235 0.239216
1.000000 0.572549 0.254902
1.000000 0.560784 0.270588
1.000000 0.545098 0.282353
1.000000 0.537255 0.294118
1.000000 0.525490 0.305882
1.000000 0.521569 0.321569
1.000000 0.509804 0.329412
0.611765 0.890196 0.000000
0.635294 0.890196 0.000000
0.654902 0.890196 0.000000
0.690196 0.886275 0.000000
0.741176 0.886275 0.000000
0.792157 0.882353 0.000000
0.850980 0.878431 0.000000
0.913725 0.874510 0.000000
0.976471 0.862745 0.000000
1.000000 0.839216 0.066667
1.000000 0.811765 0.109804
1.000000 0.784314 0.149020
1.000000 0.752941 0.176471
1.000000 0.725490 0.196078
1.000000 0.701961 0.215686
1.000000 0.682353 0.235294
1.000000 0.662745 0.254902
1.000000 0.639216 0.266667
1.000000 0.623529 0.282353
1.000000 0.607843 0.294118
1.000000 0.596078 0.309804
1.000000 0.584314 0.321569
1.000000 0.572549 0.333333
1.000000 0.564706 0.345098
1.000000 0.552941 0.352941
0.635294 0.917647 0.098039
0.650980 0.917647 0.098039
0.670588 0.917647 0.101961
0.701961 0.917647 0.101961
0.745098 0.917647 0.101961
0.788235 0.913725 0.101961
0.839216 0.909804 0.101961
0.894118 0.905882 0.105882
0.952941 0.898039 0.105882
