assets/luts-cube/lut-1.cube
#Generated by lutCreator.js
#Coded by SirSerch
#https://github.com/SirSerch/LutCreatorJs
TITLE lutCreatorJs_25
LUT_3D_SIZE 5
0.000000 0.000000 0.000000
0.266667 0.000000 0.000000
0.564706 0.000000 0.000000
0.882353 0.000000 0.000000
1.000000 0.000000 0.000000
0.000000 0.270588 0.000000
0.270588 0.270588 0.000000
0.568627 0.282353 0.000000
0.886275 0.294118 0.000000
1.000000 0.286275 0.000000
0.000000 0.588235 0.000000
0.286275 0.588235 0.000000
0.592157 0.592157 0.000000
0.886275 0.592157 0.000000
1.000000 0.580392 0.000000
0.000000 0.886275 0.000000
0.270588 0.882353 0.000000
0.584314 0.882353 0.000000
0.878431 0.878431 0.000000
1.000000 0.854902 0.000000
0.192157 1.000000 0.192157
0.329412 1.000000 0.196078
0.556863 1.000000 0.211765
0.788235 1.000000 0.247059
1.000000 1.000000 0.305882
0.090196 0.000000 0.266667
0.270588 0.000000 0.270588
0.572549 0.000000 0.282353
0.886275 0.000000 0.274510
1.000000 0.000000 0.270588
0.000000 0.262745 0.270588
0.270588 0.270588 0.270588
0.580392 0.270588 0.270588
0.886275 0.270588 0.270588
1.000000 0.270588 0.270588
0.000000 0.592157 0.266667
0.266667 0.592157 0.266667
0.592157 0.592157 0.262745
0.894118 0.592157 0.266667
1.000000 0.576471 0.274510
0.000000 0.882353 0.266667
0.270588 0.886275 0.270588
0.584314 0.882353 0.270588
0.898039 0.898039 0.298039
1.000000 0.866667 0.333333
0.329412 1.000000 0.411765
0.380392 1.000000 0.380392
0.588235 1.000000 0.403922
0.803922 1.000000 0.443137
1.000000 1.000000 0.490196
0.231373 0.000000 0.584314
0.349020 0.000000 0.584314
0.588235 0.000000 0.588235
0.890196 0.000000 0.588235
1.000000 0.000000 0.580392
0.192157 0.247059 0.588235
0.345098 0.258824 0.588235
0.588235 0.262745 0.588235
0.890196 0.258824 0.588235
1.000000 0.290196 0.588235
0.000000 0.580392 0.592157
0.262745 0.584314 0.596078
0.596078 0.596078 0.596078
0.886275 0.596078 0.596078
1.000000 0.600000 0.600000
0.015686 0.882353 0.596078
0.313725 0.882353 0.596078
0.600000 0.882353 0.600000
0.886275 0.890196 0.611765
1.000000 0.866667 0.623529
0.454902 1.000000 0.647059
0.498039 1.000000 0.639216
0.650980 1.000000 0.650980
0.835294 1.000000 0.678431
1.000000 1.000000 0.701961
0.360784 0.000000 0.878431
0.447059 0.000000 0.878431
0.635294 0.000000 0.882353
0.890196 0.000000 0.890196
1.000000 0.000000 0.874510
0.356863 0.243137 0.886275
0.439216 0.239216 0.878431
0.639216 0.258824 0.890196
0.894118 0.282353 0.894118
1.000000 0.329412 0.878431
0.243137 0.513725 0.898039
0.396078 0.533333 0.890196
0.662745 0.603922 0.890196
0.898039 0.623529 0.898039
1.000000 0.647059 0.886275
0.270588 0.882353 0.898039
0.388235 0.878431 0.894118
0.647059 0.886275 0.898039
0.905882 0.905882 0.905882
1.000000 0.917647 0.917647
0.643137 1.000000 0.874510
0.662745 1.000000 0.870588
0.819608 1.000000 0.905882
0.941176 1.000000 0.941176
1.000000 1.000000 0.937255
0.458824 0.000000 1.000000
0.513725 0.000000 1.000000
0.650980 0.000000 1.000000
0.835294 0.184314 1.000000
1.000000 0.301961 1.000000
0.478431 0.274510 1.000000
0.529412 0.274510 1.000000
0.662745 0.309804 1.000000
0.843137 0.384314 1.000000
1.000000 0.458824 1.000000
0.584314 0.615686 1.000000
0.611765 0.611765 1.000000
0.725490 0.635294 1.000000
0.870588 0.674510 1.000000
1.000000 0.709804 1.000000
0.611765 0.803922 1.000000
0.643137 0.803922 1.000000
0.796078 0.850980 1.000000
0.941176 0.925490 1.000000
1.000000 0.941176 1.000000
0.760784 0.996078 1.000000
0.784314 0.996078 1.000000
0.909804 0.996078 1.000000
1.000000 1.000000 1.000000
1.000000 1.000000 1.000000
