assets/luts-cube/lut-2.cube
#Generated by lutCreator.js
#Coded by SirSerch
#https://github.com/SirSerch/LutCreatorJs
TITLE lutCreatorJs_25
LUT_3D_SIZE 25
0.000000 0.000000 0.000000
0.043137 0.000000 0.000000
0.082353 0.000000 0.000000
0.125490 0.000000 0.000000
0.176471 0.000000 0.000000
0.219608 0.000000 0.000000
0.266667 0.000000 0.000000
0.305882 0.000000 0.000000
0.356863 0.000000 0.000000
0.407843 0.000000 0.000000
0.458824 0.000000 0.000000
0.509804 0.000000 0.000000
0.564706 0.000000 0.000000
0.615686 0.000000 0.000000
0.674510 0.000000 0.000000
0.725490 0.000000 0.000000
0.780392 0.000000 0.000000
0.831373 0.000000 0.000000
0.882353 0.000000 0.000000
0.933333 0.000000 0.000000
0.984314 0.000000 0.000000
1.000000 0.000000 0.000000
1.000000 0.000000 0.000000
1.000000 0.000000 0.000000
1.000000 0.000000 0.000000
0.000000 0.043137 0.000000
0.043137 0.043137 0.000000
0.082353 0.043137 0.000000
0.129412 0.043137 0.000000
0.176471 0.047059 0.000000
0.215686 0.047059 0.000000
0.266667 0.047059 0.000000
0.309804 0.043137 0.000000
0.356863 0.047059 0.000000
0.411765 0.047059 0.000000
0.458824 0.047059 0.000000
0.509804 0.043137 0.000000
0.564706 0.039216 0.000000
0.615686 0.039216 0.000000
0.674510 0.035294 0.000000
0.725490 0.031373 0.000000
0.780392 0.023529 0.000000
0.831373 0.019608 0.000000
0.882353 0.019608 0.000000
0.933333 0.011765 0.000000
0.984314 0.007843 0.000000
1.000000 0.000000 0.000000
1.000000 0.000000 0.000000
1.000000 0.000000 0.000000
1.000000 0.000000 0.000000
0.000000 0.082353 0.000000
0.043137 0.082353 0.000000
0.082353 0.082353 0.000000
0.129412 0.082353 0.000000
0.176471 0.086275 0.000000
0.215686 0.086275 0.000000
0.266667 0.086275 0.000000
0.309804 0.086275 0.000000
0.360784 0.090196 0.000000
0.411765 0.090196 0.000000
0.458824 0.090196 0.000000
0.509804 0.090196 0.000000
0.568627 0.090196 0.000000
0.615686 0.086275 0.000000
0.674510 0.086275 0.000000
0.725490 0.086275 0.000000
0.780392 0.082353 0.000000
0.831373 0.082353 0.000000
0.882353 0.078431 0.000000
0.933333 0.078431 0.000000
0.984314 0.070588 0.000000
1.000000 0.070588 0.000000
1.000000 0.066667 0.000000
1.000000 0.066667 0.000000
1.000000 0.062745 0.000000
0.000000 0.133333 0.000000
0.043137 0.129412 0.000000
0.082353 0.129412 0.000000
0.129412 0.129412 0.000000
0.176471 0.129412 0.000000
0.219608 0.133333 0.000000
0.270588 0.137255 0.000000
0.313725 0.137255 0.000000
0.360784 0.133333 0.000000
0.411765 0.137255 0.000000
0.458824 0.141176 0.000000
0.513725 0.141176 0.000000
0.564706 0.137255 0.000000
0.615686 0.141176 0.000000
0.674510 0.141176 0.000000
0.725490 0.141176 0.000000
0.780392 0.141176 0.000000
0.831373 0.137255 0.000000
0.882353 0.141176 0.000000
0.933333 0.137255 0.000000
0.984314 0.133333 0.000000
1.000000 0.129412 0.000000
1.000000 0.133333 0.000000
1.000000 0.129412 0.000000
1.000000 0.129412 0.000000
0.000000 0.176471 0.000000
0.043137 0.176471 0.000000
0.086275 0.176471 0.000000
0.133333 0.176471 0.000000
0.176471 0.176471 0.000000
0.223529 0.180392 0.000000
0.266667 0.180392 0.000000
0.309804 0.180392 0.000000
0.364706 0.184314 0.000000
0.411765 0.184314 0.000000
0.458824 0.184314 0.000000
0.509804 0.184314 0.000000
0.568627 0.188235 0.000000
0.619608 0.192157 0.000000
0.674510 0.192157 0.000000
0.729412 0.196078 0.000000
0.780392 0.192157 0.000000
0.835294 0.192157 0.000000
0.882353 0.192157 0.000000
0.937255 0.192157 0.000000
0.992157 0.192157 0.000000
1.000000 0.192157 0.000000
1.000000 0.192157 0.000000
1.000000 0.192157 0.000000
1.000000 0.188235 0.000000
0.000000 0.223529 0.000000
0.039216 0.219608 0.000000
0.086275 0.223529 0.000000
0.133333 0.223529 0.000000
0.180392 0.219608 0.000000
0.219608 0.219608 0.000000
0.266667 0.223529 0.000000
0.313725 0.227451 0.000000
0.364706 0.227451 0.000000
0.411765 0.227451 0.000000
0.462745 0.231373 0.000000
0.513725 0.235294 0.000000
0.568627 0.235294 0.000000
0.623529 0.239216 0.000000
0.678431 0.239216 0.000000
0.729412 0.239216 0.000000
0.784314 0.243137 0.000000
0.835294 0.239216 0.000000
0.882353 0.239216 0.000000
0.933333 0.239216 0.000000
0.984314 0.239216 0.000000
1.000000 0.239216 0.000000
1.000000 0.235294 0.000000
1.000000 0.235294 0.000000
1.000000 0.235294 0.000000
0.000000 0.270588 0.000000
0.039216 0.270588 0.000000
0.086275 0.270588 0.000000
0.133333 0.270588 0.000000
0.180392 0.270588 0.000000
0.223529 0.270588 0.000000
0.270588 0.270588 0.000000
0.313725 0.270588 0.000000
0.364706 0.274510 0.000000
0.411765 0.274510 0.000000
0.462745 0.278431 0.000000
0.517647 0.282353 0.000000
0.568627 0.282353 0.000000
0.623529 0.286275 0.000000
0.682353 0.290196 0.000000
0.729412 0.290196 0.000000
0.784314 0.290196 0.000000
0.839216 0.294118 0.000000
0.886275 0.294118 0.000000
0.933333 0.290196 0.000000
0.988235 0.294118 0.000000
1.000000 0.290196 0.000000
1.000000 0.290196 0.000000
1.000000 0.286275 0.000000
1.000000 0.286275 0.000000
0.000000 0.313725 0.000000
0.035294 0.317647 0.000000
0.082353 0.313725 0.000000
0.137255 0.317647 0.000000
0.184314 0.317647 0.000000
0.223529 0.313725 0.000000
0.274510 0.317647 0.000000
0.317647 0.317647 0.000000
0.368627 0.321569 0.000000
0.419608 0.321569 0.000000
0.462745 0.321569 0.000000
0.521569 0.329412 0.000000
0.572549 0.329412 0.000000
0.623529 0.333333 0.000000
0.682353 0.337255 0.000000
0.733333 0.341176 0.000000
0.784314 0.337255 0.000000
0.839216 0.341176 0.000000
0.882353 0.337255 0.000000
0.937255 0.341176 0.000000
0.988235 0.341176 0.000000
1.000000 0.337255 0.000000
1.000000 0.337255 0.000000
1.000000 0.337255 0.000000
1.000000 0.333333 0.000000
0.000000 0.368627 0.000000
0.027451 0.368627 0.000000
0.078431 0.368627 0.000000
0.133333 0.368627 0.000000
0.184314 0.372549 0.000000
0.227451 0.368627 0.000000
0.278431 0.372549 0.000000
0.321569 0.372549 0.000000
0.368627 0.368627 0.000000
0.419608 0.372549 0.000000
0.466667 0.372549 0.000000
0.521569 0.376471 0.000000
0.576471 0.380392 0.000000
0.631373 0.388235 0.000000
0.686275 0.388235 0.000000
0.733333 0.392157 0.000000
0.784314 0.392157 0.000000
0.839216 0.392157 0.000000
0.882353 0.388235 0.000000
0.937255 0.388235 0.000000
0.988235 0.388235 0.000000
1.000000 0.388235 0.000000
1.000000 0.388235 0.000000
1.000000 0.384314 0.000000
1.000000 0.384314 0.000000
0.000000 0.419608 0.000000
0.011765 0.419608 0.000000
0.074510 0.419608 0.000000
0.129412 0.419608 0.000000
0.180392 0.423529 0.000000
0.231373 0.423529 0.000000
0.278431 0.423529 0.000000
0.325490 0.423529 0.000000
0.376471 0.423529 0.000000
0.427451 0.427451 0.000000
0.470588 0.427451 0.000000
0.525490 0.427451 0.000000
0.584314 0.435294 0.000000
0.631373 0.435294 0.000000
0.686275 0.439216 0.000000
0.737255 0.443137 0.000000
0.784314 0.439216 0.000000
0.839216 0.439216 0.000000
0.886275 0.443137 0.000000
0.941176 0.443137 0.000000
0.992157 0.443137 0.000000
1.000000 0.447059 0.000000
1.000000 0.447059 0.000000
1.000000 0.443137 0.000000
1.000000 0.439216 0.000000
0.000000 0.474510 0.000000
0.000000 0.470588 0.000000
0.066667 0.474510 0.000000
0.129412 0.474510 0.000000
0.180392 0.474510 0.000000
0.231373 0.474510 0.000000
0.282353 0.474510 0.000000
0.329412 0.478431 0.000000
0.380392 0.478431 0.000000
0.431373 0.478431 0.000000
0.478431 0.478431 0.000000
0.529412 0.478431 0.000000
0.588235 0.486275 0.000000
0.635294 0.486275 0.000000
0.686275 0.486275 0.000000
0.737255 0.490196 0.000000
0.788235 0.490196 0.000000
0.843137 0.490196 0.000000
0.886275 0.490196 0.000000
0.937255 0.490196 0.000000
0.988235 0.490196 0.000000
1.000000 0.486275 0.000000
1.000000 0.486275 0.000000
1.000000 0.486275 0.000000
1.000000 0.482353 0.000000
0.000000 0.533333 0.000000
0.000000 0.533333 0.000000
0.050980 0.529412 0.000000
0.125490 0.533333 0.000000
0.180392 0.533333 0.000000
0.231373 0.533333 0.000000
0.286275 0.533333 0.000000
0.329412 0.533333 0.000000
0.384314 0.533333 0.000000
0.439216 0.533333 0.000000
0.486275 0.537255 0.000000
0.537255 0.537255 0.000000
0.588235 0.537255 0.000000
0.635294 0.537255 0.000000
0.690196 0.541176 0.000000
0.737255 0.541176 0.000000
0.792157 0.541176 0.000000
0.839216 0.541176 0.000000
0.886275 0.541176 0.000000
0.937255 0.541176 0.000000
0.988235 0.541176 0.000000
1.000000 0.537255 0.000000
1.000000 0.537255 0.000000
1.000000 0.533333 0.000000
1.000000 0.533333 0.000000
0.000000 0.588235 0.000000
0.000000 0.588235 0.000000
0.031373 0.588235 0.000000
0.117647 0.592157 0.000000
0.176471 0.588235 0.000000
0.231373 0.592157 0.000000
0.286275 0.588235 0.000000
0.333333 0.592157 0.000000
0.388235 0.592157 0.000000
0.439216 0.592157 0.000000
0.486275 0.592157 0.000000
0.537255 0.592157 0.000000
0.592157 0.592157 0.000000
0.639216 0.592157 0.000000
0.690196 0.592157 0.000000
0.737255 0.592157 0.000000
0.792157 0.596078 0.000000
0.843137 0.592157 0.000000
0.886275 0.592157 0.000000
0.937255 0.592157 0.000000
0.988235 0.592157 0.000000
1.000000 0.588235 0.000000
1.000000 0.584314 0.000000
1.000000 0.584314 0.000000
1.000000 0.580392 0.000000
0.000000 0.639216 0.000000
0.000000 0.639216 0.000000
0.011765 0.639216 0.000000
0.105882 0.639216 0.000000
0.176471 0.639216 0.000000
0.227451 0.639216 0.000000
0.286275 0.639216 0.000000
0.333333 0.639216 0.000000
0.384314 0.639216 0.000000
0.443137 0.643137 0.000000
0.490196 0.639216 0.000000
0.537255 0.639216 0.000000
0.592157 0.639216 0.000000
0.639216 0.639216 0.000000
0.690196 0.639216 0.000000
0.737255 0.639216 0.000000
0.792157 0.643137 0.000000
0.843137 0.639216 0.000000
0.890196 0.639216 0.000000
0.937255 0.639216 0.000000
0.984314 0.635294 0.000000
1.000000 0.635294 0.000000
1.000000 0.635294 0.000000
1.000000 0.627451 0.000000
1.000000 0.627451 0.000000
0.000000 0.690196 0.000000
0.000000 0.694118 0.000000
0.000000 0.690196 0.000000
0.098039 0.690196 0.000000
0.168627 0.694118 0.000000
0.223529 0.690196 0.000000
0.282353 0.690196 0.000000
0.333333 0.694118 0.000000
0.384314 0.690196 0.000000
0.439216 0.690196 0.000000
0.490196 0.694118 0.000000
0.541176 0.694118 0.000000
0.592157 0.690196 0.000000
0.643137 0.694118 0.000000
0.690196 0.690196 0.000000
0.741176 0.694118 0.000000
0.792157 0.694118 0.000000
0.843137 0.690196 0.000000
0.886275 0.690196 0.000000
0.941176 0.690196 0.000000
0.996078 0.694118 0.000000
1.000000 0.694118 0.000000
1.000000 0.690196 0.000000
1.000000 0.686275 0.000000
1.000000 0.682353 0.000000
0.000000 0.737255 0.000000
0.000000 0.741176 0.000000
0.000000 0.741176 0.000000
0.090196 0.741176 0.000000
0.164706 0.737255 0.000000
0.219608 0.737255 0.000000
0.278431 0.737255 0.000000
0.333333 0.741176 0.000000
0.384314 0.741176 0.000000
0.439216 0.737255 0.000000
0.486275 0.741176 0.000000
0.541176 0.741176 0.000000
0.592157 0.741176 0.000000
0.639216 0.741176 0.000000
0.690196 0.737255 0.000000
0.741176 0.741176 0.000000
0.792157 0.741176 0.000000
0.843137 0.741176 0.000000
0.890196 0.741176 0.000000
0.937255 0.737255 0.000000
0.984314 0.733333 0.000000
1.000000 0.733333 0.000000
1.000000 0.729412 0.000000
1.000000 0.721569 0.000000
1.000000 0.721569 0.000000
0.000000 0.788235 0.000000
0.000000 0.788235 0.000000
0.000000 0.792157 0.000000
0.078431 0.788235 0.000000
0.156863 0.788235 0.000000
0.215686 0.788235 0.000000
0.278431 0.792157 0.000000
0.329412 0.792157 0.000000
0.380392 0.788235 0.000000
0.439216 0.792157 0.000000
0.482353 0.788235 0.000000
0.541176 0.792157 0.000000
0.592157 0.788235 0.000000
0.639216 0.792157 0.000000
0.690196 0.792157 0.000000
0.737255 0.788235 0.000000
0.792157 0.792157 0.000000
0.839216 0.788235 0.000000
0.890196 0.788235 0.000000
0.937255 0.788235 0.000000
0.984314 0.784314 0.000000
1.000000 0.784314 0.000000
1.000000 0.776471 0.000000
1.000000 0.772549 0.000000
1.000000 0.764706 0.000000
0.000000 0.839216 0.000000
0.000000 0.839216 0.000000
0.000000 0.843137 0.000000
0.070588 0.839216 0.000000
0.156863 0.843137 0.000000
0.211765 0.839216 0.000000
0.274510 0.839216 0.000000
0.325490 0.839216 0.000000
0.380392 0.839216 0.000000
0.435294 0.839216 0.000000
0.482353 0.839216 0.000000
0.537255 0.843137 0.000000
0.588235 0.839216 0.000000
0.635294 0.839216 0.000000
0.690196 0.839216 0.000000
0.733333 0.839216 0.000000
0.788235 0.839216 0.000000
0.839216 0.839216 0.000000
0.886275 0.839216 0.000000
0.937255 0.839216 0.000000
0.984314 0.835294 0.000000
1.000000 0.831373 0.000000
1.000000 0.827451 0.000000
1.000000 0.819608 0.000000
1.000000 0.815686 0.000000
0.000000 0.886275 0.000000
0.000000 0.886275 0.000000
0.000000 0.886275 0.000000
0.070588 0.886275 0.000000
0.152941 0.882353 0.000000
0.211765 0.882353 0.000000
0.270588 0.882353 0.000000
0.321569 0.882353 0.000000
0.380392 0.886275 0.000000
0.435294 0.886275 0.000000
0.482353 0.886275 0.000000
0.533333 0.882353 0.000000
0.584314 0.882353 0.000000
0.635294 0.882353 0.000000
0.686275 0.882353 0.000000
0.733333 0.882353 0.000000
0.784314 0.882353 0.000000
0.835294 0.878431 0.000000
0.878431 0.878431 0.000000
0.933333 0.882353 0.000000
0.980392 0.878431 0.000000
1.000000 0.878431 0.000000
1.000000 0.870588 0.000000
1.000000 0.862745 0.000000
1.000000 0.854902 0.000000
0.000000 0.933333 0.000000
0.000000 0.929412 0.000000
0.000000 0.929412 0.000000
0.074510 0.929412 0.000000
0.156863 0.929412 0.000000
0.215686 0.929412 0.000000
0.274510 0.929412 0.000000
0.325490 0.933333 0.000000
0.380392 0.929412 0.000000
0.431373 0.929412 0.000000
0.482353 0.929412 0.000000
0.533333 0.929412 0.000000
0.584314 0.929412 0.000000
0.631373 0.929412 0.000000
0.682353 0.925490 0.000000
0.725490 0.925490 0.000000
0.776471 0.925490 0.000000
0.827451 0.925490 0.000000
0.878431 0.929412 0.000000
0.929412 0.929412 0.000000
0.980392 0.929412 0.000000
1.000000 0.933333 0.000000
1.000000 0.929412 0.000000
1.000000 0.917647 0.000000
1.000000 0.905882 0.058824
0.000000 0.972549 0.000000
0.000000 0.976471 0.000000
0.000000 0.972549 0.000000
0.086275 0.972549 0.000000
0.160784 0.972549 0.000000
0.219608 0.976471 0.000000
0.274510 0.972549 0.000000
0.325490 0.972549 0.000000
0.376471 0.972549 0.000000
0.427451 0.972549 0.000000
0.478431 0.972549 0.000000
0.529412 0.972549 0.000000
0.580392 0.972549 0.000000
0.627451 0.972549 0.000000
0.678431 0.972549 0.000000
0.721569 0.968627 0.000000
0.772549 0.968627 0.000000
0.823529 0.968627 0.000000
0.866667 0.968627 0.000000
0.917647 0.968627 0.000000
0.968627 0.968627 0.000000
1.000000 0.964706 0.000000
1.000000 0.960784 0.000000
1.000000 0.956863 0.000000
1.000000 0.941176 0.015686
0.000000 1.000000 0.000000
0.000000 1.000000 0.000000
0.023529 1.000000 0.000000
0.109804 1.000000 0.000000
0.172549 1.000000 0.000000
0.223529 1.000000 0.000000
0.278431 1.000000 0.000000
0.325490 1.000000 0.000000
0.380392 1.000000 0.000000
0.431373 1.000000 0.000000
0.478431 1.000000 0.000000
0.525490 1.000000 0.000000
0.576471 1.000000 0.000000
0.623529 1.000000 0.000000
0.670588 1.000000 0.000000
0.717647 1.000000 0.000000
0.764706 1.000000 0.000000
0.815686 1.000000 0.000000
0.858824 1.000000 0.000000
0.905882 1.000000 0.000000
0.952941 1.000000 0.000000
0.996078 0.996078 0.000000
1.000000 0.992157 0.003922
1.000000 0.992157 0.015686
1.000000 0.980392 0.070588
0.000000 1.000000 0.000000
0.035294 1.000000 0.000000
0.090196 1.000000 0.000000
0.141176 1.000000 0.000000
0.192157 1.000000 0.000000
0.239216 1.000000 0.000000
0.290196 1.000000 0.000000
0.333333 1.000000 0.000000
0.380392 1.000000 0.000000
0.431373 1.000000 0.000000
0.474510 1.000000 0.003922
0.521569 1.000000 0.011765
0.572549 1.000000 0.015686
0.615686 1.000000 0.027451
0.662745 1.000000 0.031373
0.705882 1.000000 0.043137
0.752941 1.000000 0.054902
0.800000 1.000000 0.062745
0.843137 1.000000 0.070588
0.886275 1.000000 0.082353
0.933333 1.000000 0.098039
0.968627 1.000000 0.105882
1.000000 1.000000 0.117647
1.000000 1.000000 0.133333
1.000000 1.000000 0.145098
0.098039 1.000000 0.098039
0.125490 1.000000 0.101961
0.149020 1.000000 0.101961
0.184314 1.000000 0.101961
0.223529 1.000000 0.105882
0.262745 1.000000 0.105882
0.301961 1.000000 0.105882
0.345098 1.000000 0.109804
0.388235 1.000000 0.113725
0.435294 1.000000 0.117647
0.474510 1.000000 0.121569
0.517647 1.000000 0.125490
0.564706 1.000000 0.133333
0.603922 1.000000 0.133333
0.650980 1.000000 0.141176
0.686275 1.000000 0.145098
0.733333 1.000000 0.152941
0.776471 1.000000 0.160784
0.811765 1.000000 0.164706
0.858824 1.000000 0.180392
0.898039 1.000000 0.196078
0.933333 1.000000 0.211765
0.976471 1.000000 0.219608
1.000000 1.000000 0.219608
1.000000 1.000000 0.207843
0.192157 1.000000 0.192157
0.203922 1.000000 0.192157
0.215686 1.000000 0.192157
0.239216 1.000000 0.192157
0.266667 1.000000 0.192157
0.294118 1.000000 0.192157
0.329412 1.000000 0.196078
0.360784 1.000000 0.196078
0.396078 1.000000 0.196078
0.435294 1.000000 0.200000
0.474510 1.000000 0.203922
0.513725 1.000000 0.207843
0.556863 1.000000 0.211765
0.592157 1.000000 0.211765
0.631373 1.000000 0.215686
0.670588 1.000000 0.219608
0.709804 1.000000 0.223529
0.752941 1.000000 0.235294
0.788235 1.000000 0.247059
0.827451 1.000000 0.262745
0.870588 1.000000 0.274510
0.905882 1.000000 0.282353
0.941176 1.000000 0.290196
0.976471 1.000000 0.298039
1.000000 1.000000 0.305882
0.000000 0.011765 0.043137
0.031373 0.003922 0.047059
0.082353 0.000000 0.043137
0.129412 0.000000 0.043137
0.172549 0.000000 0.043137
0.219608 0.000000 0.043137
0.266667 0.000000 0.043137
0.313725 0.000000 0.043137
0.360784 0.000000 0.043137
0.411765 0.000000 0.039216
0.458824 0.000000 0.039216
0.509804 0.000000 0.035294
0.564706 0.000000 0.031373
0.615686 0.000000 0.027451
0.670588 0.000000 0.023529
0.725490 0.000000 0.019608
0.780392 0.000000 0.015686
0.831373 0.000000 0.007843
0.878431 0.000000 0.003922
0.933333 0.000000 0.000000
0.984314 0.000000 0.000000
1.000000 0.000000 0.000000
1.000000 0.000000 0.000000
1.000000 0.000000 0.000000
1.000000 0.000000 0.000000
0.000000 0.047059 0.043137
0.043137 0.043137 0.043137
0.086275 0.043137 0.043137
0.129412 0.043137 0.043137
0.176471 0.043137 0.043137
0.219608 0.043137 0.043137
0.266667 0.043137 0.043137
0.309804 0.043137 0.043137
0.356863 0.039216 0.039216
0.411765 0.039216 0.039216
0.458824 0.039216 0.039216
0.509804 0.035294 0.035294
0.568627 0.031373 0.031373
0.619608 0.031373 0.031373
0.674510 0.023529 0.023529
0.725490 0.015686 0.015686
0.780392 0.015686 0.015686
0.835294 0.007843 0.007843
0.882353 0.003922 0.003922
0.933333 0.000000 0.000000
0.984314 0.000000 0.000000
1.000000 0.000000 0.000000
1.000000 0.000000 0.000000
1.000000 0.000000 0.000000
1.000000 0.000000 0.000000
0.000000 0.082353 0.043137
0.043137 0.086275 0.043137
0.086275 0.086275 0.043137
0.129412 0.086275 0.043137
0.176471 0.086275 0.043137
0.219608 0.086275 0.043137
0.266667 0.086275 0.043137
0.313725 0.090196 0.043137
0.360784 0.086275 0.039216
0.411765 0.086275 0.039216
0.458824 0.086275 0.035294
0.513725 0.086275 0.035294
0.568627 0.086275 0.031373
0.619608 0.086275 0.027451
0.674510 0.078431 0.019608
0.725490 0.078431 0.015686
0.780392 0.074510 0.007843
0.835294 0.074510 0.003922
0.882353 0.070588 0.000000
0.937255 0.070588 0.000000
0.984314 0.066667 0.000000
1.000000 0.062745 0.000000
1.000000 0.058824 0.000000
1.000000 0.054902 0.000000
1.000000 0.050980 0.000000
0.000000 0.129412 0.043137
0.039216 0.129412 0.039216
0.086275 0.133333 0.043137
0.129412 0.129412 0.043137
0.176471 0.133333 0.043137
0.219608 0.133333 0.043137
0.266667 0.133333 0.039216
0.309804 0.133333 0.039216
0.360784 0.133333 0.035294
0.411765 0.133333 0.035294
0.458824 0.133333 0.031373
0.513725 0.137255 0.031373
0.564706 0.133333 0.027451
0.619608 0.137255 0.023529
0.674510 0.137255 0.015686
0.725490 0.137255 0.011765
0.780392 0.137255 0.007843
0.831373 0.133333 0.000000
0.882353 0.133333 0.000000
0.933333 0.133333 0.000000
0.988235 0.129412 0.000000
1.000000 0.129412 0.000000
1.000000 0.125490 0.000000
1.000000 0.125490 0.000000
1.000000 0.125490 0.000000
0.000000 0.176471 0.039216
0.039216 0.176471 0.039216
0.082353 0.176471 0.039216
0.133333 0.176471 0.039216
0.176471 0.176471 0.039216
0.219608 0.180392 0.039216
0.270588 0.180392 0.039216
0.313725 0.184314 0.039216
0.364706 0.184314 0.035294
0.415686 0.184314 0.035294
0.462745 0.184314 0.031373
0.513725 0.184314 0.027451
0.568627 0.188235 0.023529
0.619608 0.188235 0.019608
0.678431 0.188235 0.011765
0.729412 0.192157 0.007843
0.780392 0.188235 0.000000
0.835294 0.192157 0.000000
0.890196 0.192157 0.000000
0.941176 0.192157 0.000000
0.996078 0.188235 0.000000
1.000000 0.192157 0.000000
1.000000 0.192157 0.000000
1.000000 0.188235 0.000000
1.000000 0.188235 0.000000
0.000000 0.219608 0.039216
0.035294 0.219608 0.035294
0.086275 0.223529 0.039216
0.133333 0.223529 0.039216
0.176471 0.219608 0.035294
0.223529 0.223529 0.039216
0.270588 0.223529 0.035294
0.313725 0.223529 0.035294
0.364706 0.227451 0.035294
0.415686 0.227451 0.031373
0.458824 0.227451 0.027451
0.513725 0.231373 0.023529
0.568627 0.231373 0.019608
0.623529 0.235294 0.015686
0.678431 0.239216 0.007843
0.729412 0.239216 0.003922
0.784314 0.239216 0.000000
0.835294 0.235294 0.000000
0.882353 0.239216 0.000000
0.937255 0.239216 0.000000
0.984314 0.235294 0.000000
1.000000 0.235294 0.000000
1.000000 0.235294 0.000000
1.000000 0.231373 0.000000
1.000000 0.235294 0.000000
0.000000 0.270588 0.035294
0.035294 0.270588 0.035294
0.082353 0.270588 0.035294
0.133333 0.270588 0.035294
0.180392 0.270588 0.031373
0.223529 0.270588 0.031373
0.274510 0.274510 0.035294
0.313725 0.274510 0.031373
0.364706 0.274510 0.027451
0.415686 0.278431 0.027451
0.462745 0.278431 0.023529
0.517647 0.282353 0.015686
0.572549 0.282353 0.011765
0.623529 0.286275 0.003922
0.682353 0.290196 0.000000
0.733333 0.290196 0.000000
0.784314 0.294118 0.000000
0.839216 0.294118 0.000000
0.882353 0.290196 0.000000
0.933333 0.290196 0.000000
0.984314 0.286275 0.000000
1.000000 0.290196 0.000000
1.000000 0.286275 0.000000
1.000000 0.286275 0.000000
1.000000 0.286275 0.000000
0.000000 0.313725 0.027451
0.027451 0.313725 0.027451
0.078431 0.317647 0.027451
0.133333 0.317647 0.027451
0.180392 0.317647 0.027451
0.227451 0.317647 0.027451
0.274510 0.317647 0.027451
0.317647 0.317647 0.027451
0.368627 0.321569 0.027451
0.419608 0.321569 0.019608
0.466667 0.325490 0.015686
0.517647 0.325490 0.011765
0.572549 0.329412 0.003922
0.627451 0.333333 0.000000
0.682353 0.337255 0.000000
0.729412 0.337255 0.000000
0.784314 0.337255 0.000000
0.839216 0.337255 0.000000
0.886275 0.337255 0.000000
0.933333 0.337255 0.000000
0.984314 0.337255 0.000000
1.000000 0.337255 0.000000
1.000000 0.333333 0.000000
1.000000 0.333333 0.000000
1.000000 0.333333 0.000000
0.000000 0.368627 0.019608
0.019608 0.368627 0.019608
0.078431 0.368627 0.019608
0.129412 0.368627 0.019608
0.184314 0.372549 0.019608
0.227451 0.368627 0.015686
0.278431 0.368627 0.019608
0.321569 0.372549 0.019608
0.368627 0.368627 0.015686
0.423529 0.372549 0.015686
0.466667 0.372549 0.007843
0.521569 0.380392 0.000000
0.580392 0.384314 0.000000
0.631373 0.388235 0.000000
0.686275 0.388235 0.000000
0.733333 0.388235 0.000000
0.784314 0.388235 0.000000
0.839216 0.388235 0.000000
0.882353 0.388235 0.000000
0.941176 0.392157 0.000000
0.992157 0.392157 0.000000
1.000000 0.392157 0.000000
1.000000 0.388235 0.000000
1.000000 0.388235 0.000000
1.000000 0.384314 0.000000
0.000000 0.423529 0.007843
0.011765 0.423529 0.007843
0.070588 0.423529 0.007843
0.129412 0.423529 0.003922
0.184314 0.423529 0.007843
0.231373 0.423529 0.007843
0.278431 0.423529 0.003922
0.325490 0.423529 0.003922
0.376471 0.423529 0.000000
0.427451 0.427451 0.000000
0.470588 0.427451 0.000000
0.529412 0.431373 0.000000
0.580392 0.435294 0.000000
0.631373 0.435294 0.000000
0.686275 0.439216 0.000000
0.733333 0.439216 0.000000
0.788235 0.443137 0.000000
0.839216 0.443137 0.000000
0.894118 0.447059 0.000000
0.949020 0.447059 0.000000
1.000000 0.447059 0.000000
1.000000 0.450980 0.000000
1.000000 0.447059 0.000000
1.000000 0.447059 0.000000
1.000000 0.443137 0.000000
0.000000 0.470588 0.000000
0.000000 0.470588 0.000000
0.062745 0.474510 0.000000
0.125490 0.474510 0.000000
0.184314 0.474510 0.000000
0.231373 0.474510 0.000000
0.282353 0.474510 0.000000
0.329412 0.478431 0.000000
0.380392 0.474510 0.000000
