assets/luts-cube/lut-3.cube
#Generated by lutCreator.js
#Coded by SirSerch
#https://github.com/SirSerch/LutCreatorJs
TITLE lutCreatorJs_25
LUT_3D_SIZE 9
0.301961 0.301961 0.301961
0.301961 0.301961 0.301961
0.301961 0.301961 0.301961
0.301961 0.301961 0.301961
0.301961 0.301961 0.301961
0.301961 0.301961 0.301961
0.490196 0.313725 0.294118
0.725490 0.337255 0.278431
0.945098 0.352941 0.258824
0.301961 0.301961 0.301961
0.301961 0.301961 0.301961
0.301961 0.301961 0.301961
0.301961 0.301961 0.301961
0.301961 0.301961 0.301961
0.301961 0.301961 0.301961
0.490196 0.329412 0.294118
0.721569 0.364706 0.274510
0.941176 0.392157 0.250980
0.301961 0.301961 0.301961
0.301961 0.301961 0.301961
0.301961 0.301961 0.301961
0.301961 0.301961 0.301961
0.301961 0.301961 0.301961
0.301961 0.301961 0.301961
0.490196 0.360784 0.290196
0.721569 0.423529 0.262745
0.933333 0.466667 0.231373
0.301961 0.301961 0.301961
0.301961 0.301961 0.301961
0.301961 0.301961 0.301961
0.301961 0.301961 0.301961
0.301961 0.301961 0.301961
0.301961 0.301961 0.301961
0.490196 0.407843 0.278431
0.729412 0.509804 0.239216
0.945098 0.568627 0.188235
0.203922 0.474510 0.270588
0.219608 0.478431 0.270588
0.247059 0.482353 0.266667
0.298039 0.490196 0.262745
0.368627 0.505882 0.258824
0.443137 0.513725 0.250980
0.537255 0.533333 0.239216
0.705882 0.600000 0.200000
0.917647 0.674510 0.121569
0.000000 0.686275 0.184314
0.000000 0.690196 0.184314
0.000000 0.690196 0.176471
0.156863 0.694118 0.172549
0.321569 0.705882 0.160784
0.454902 0.713725 0.149020
0.584314 0.729412 0.121569
0.725490 0.756863 0.047059
0.901961 0.800000 0.000000
0.000000 0.870588 0.000000
0.000000 0.870588 0.000000
0.000000 0.870588 0.000000
0.000000 0.874510 0.000000
0.000000 0.874510 0.000000
0.352941 0.882353 0.000000
0.525490 0.882353 0.000000
0.682353 0.898039 0.000000
0.854902 0.921569 0.000000
0.000000 0.996078 0.000000
0.000000 1.000000 0.000000
0.000000 0.996078 0.000000
0.000000 1.000000 0.000000
0.000000 1.000000 0.000000
0.000000 1.000000 0.000000
0.345098 1.000000 0.000000
0.564706 0.996078 0.000000
0.749020 1.000000 0.000000
0.000000 1.000000 0.000000
0.000000 1.000000 0.000000
0.000000 1.000000 0.000000
0.000000 1.000000 0.000000
0.000000 1.000000 0.000000
0.000000 1.000000 0.000000
0.000000 1.000000 0.000000
0.529412 1.000000 0.000000
0.788235 1.000000 0.000000
0.301961 0.301961 0.301961
0.301961 0.301961 0.301961
0.301961 0.301961 0.301961
0.301961 0.301961 0.301961
0.301961 0.301961 0.301961
0.301961 0.301961 0.301961
0.490196 0.321569 0.294118
0.729412 0.349020 0.278431
0.945098 0.360784 0.254902
0.301961 0.301961 0.301961
0.301961 0.301961 0.301961
0.301961 0.301961 0.301961
0.301961 0.301961 0.301961
0.301961 0.301961 0.301961
0.301961 0.301961 0.301961
0.525490 0.345098 0.290196
0.784314 0.388235 0.266667
0.980392 0.407843 0.247059
0.301961 0.301961 0.301961
0.301961 0.301961 0.301961
0.301961 0.301961 0.301961
0.301961 0.301961 0.301961
0.301961 0.301961 0.301961
0.301961 0.301961 0.301961
0.490196 0.364706 0.286275
0.721569 0.427451 0.258824
0.937255 0.470588 0.227451
0.301961 0.301961 0.301961
0.301961 0.301961 0.301961
0.301961 0.301961 0.301961
0.301961 0.301961 0.301961
0.301961 0.301961 0.301961
0.309804 0.305882 0.301961
0.541176 0.443137 0.266667
0.784314 0.541176 0.219608
0.988235 0.592157 0.168627
0.215686 0.478431 0.270588
0.227451 0.478431 0.266667
0.254902 0.482353 0.266667
0.305882 0.494118 0.262745
0.372549 0.509804 0.258824
0.447059 0.517647 0.250980
0.545098 0.537255 0.239216
0.721569 0.611765 0.196078
0.921569 0.674510 0.121569
0.000000 0.686275 0.180392
0.000000 0.686275 0.180392
0.000000 0.690196 0.176471
0.176471 0.694118 0.168627
0.329412 0.701961 0.160784
0.454902 0.713725 0.145098
0.584314 0.729412 0.117647
0.729412 0.760784 0.043137
0.905882 0.800000 0.000000
0.000000 0.870588 0.000000
0.000000 0.870588 0.000000
0.000000 0.870588 0.000000
0.000000 0.870588 0.000000
0.047059 0.874510 0.000000
0.360784 0.882353 0.000000
0.537255 0.898039 0.000000
0.698039 0.917647 0.000000
0.874510 0.937255 0.000000
0.000000 1.000000 0.000000
0.000000 1.000000 0.000000
0.000000 1.000000 0.000000
0.000000 0.996078 0.000000
0.000000 1.000000 0.000000
0.000000 1.000000 0.000000
0.341176 1.000000 0.000000
0.560784 0.996078 0.000000
0.745098 1.000000 0.000000
0.000000 1.000000 0.000000
0.000000 1.000000 0.000000
0.000000 1.000000 0.000000
0.000000 1.000000 0.000000
0.000000 1.000000 0.000000
0.000000 1.000000 0.000000
0.000000 1.000000 0.000000
0.505882 1.000000 0.000000
0.780392 1.000000 0.000000
0.301961 0.301961 0.301961
0.301961 0.301961 0.301961
0.301961 0.301961 0.301961
0.301961 0.301961 0.301961
0.301961 0.301961 0.301961
0.301961 0.301961 0.301961
0.498039 0.329412 0.294118
0.733333 0.360784 0.274510
0.952941 0.368627 0.254902
0.301961 0.301961 0.301961
0.301961 0.301961 0.301961
0.301961 0.301961 0.301961
0.301961 0.301961 0.301961
0.301961 0.301961 0.301961
0.301961 0.301961 0.301961
0.521569 0.349020 0.290196
0.772549 0.396078 0.266667
0.964706 0.407843 0.247059
0.301961 0.301961 0.301961
0.301961 0.301961 0.301961
0.301961 0.301961 0.301961
0.301961 0.301961 0.301961
0.301961 0.301961 0.301961
0.301961 0.301961 0.301961
0.498039 0.372549 0.282353
0.729412 0.439216 0.258824
0.945098 0.474510 0.227451
0.301961 0.301961 0.301961
0.301961 0.301961 0.301961
0.301961 0.301961 0.301961
0.301961 0.301961 0.301961
0.301961 0.301961 0.301961
0.321569 0.317647 0.298039
0.541176 0.450980 0.266667
0.776471 0.541176 0.219608
0.984314 0.588235 0.172549
0.235294 0.478431 0.270588
0.243137 0.478431 0.266667
0.270588 0.486275 0.266667
0.313725 0.494118 0.258824
0.376471 0.505882 0.254902
0.450980 0.517647 0.247059
0.552941 0.549020 0.235294
0.729412 0.619608 0.188235
0.929412 0.674510 0.113725
0.000000 0.690196 0.184314
0.000000 0.690196 0.180392
0.000000 0.690196 0.176471
0.215686 0.698039 0.168627
0.345098 0.705882 0.160784
0.462745 0.713725 0.145098
0.592157 0.729412 0.113725
0.737255 0.764706 0.035294
0.917647 0.800000 0.000000
0.000000 0.870588 0.000000
0.000000 0.870588 0.000000
0.000000 0.874510 0.000000
0.000000 0.870588 0.000000
0.117647 0.874510 0.000000
0.372549 0.886275 0.000000
0.549020 0.901961 0.000000
0.709804 0.921569 0.000000
0.886275 0.933333 0.000000
0.000000 1.000000 0.000000
0.000000 1.000000 0.000000
0.000000 1.000000 0.000000
0.000000 1.000000 0.000000
0.000000 1.000000 0.000000
0.000000 1.000000 0.000000
0.333333 1.000000 0.000000
0.560784 1.000000 0.000000
0.752941 1.000000 0.000000
0.000000 1.000000 0.000000
0.000000 1.000000 0.000000
0.000000 1.000000 0.000000
0.000000 1.000000 0.000000
0.000000 1.000000 0.000000
0.000000 1.000000 0.000000
0.000000 1.000000 0.000000
0.454902 1.000000 0.000000
0.760784 1.000000 0.000000
0.301961 0.301961 0.301961
0.301961 0.301961 0.301961
0.301961 0.301961 0.301961
0.301961 0.301961 0.301961
0.301961 0.301961 0.301961
0.301961 0.301961 0.301961
0.521569 0.325490 0.290196
0.752941 0.360784 0.274510
0.964706 0.356863 0.254902
0.301961 0.301961 0.301961
0.301961 0.301961 0.301961
0.301961 0.301961 0.301961
0.301961 0.301961 0.301961
0.301961 0.301961 0.301961
0.301961 0.301961 0.301961
0.529412 0.349020 0.290196
0.772549 0.392157 0.266667
0.964706 0.388235 0.247059
0.301961 0.301961 0.301961
0.301961 0.301961 0.301961
0.301961 0.301961 0.301961
0.301961 0.301961 0.301961
0.301961 0.301961 0.301961
0.301961 0.301961 0.301961
0.517647 0.384314 0.282353
0.745098 0.447059 0.258824
0.956863 0.462745 0.227451
0.301961 0.301961 0.301961
0.301961 0.301961 0.301961
0.301961 0.301961 0.301961
0.301961 0.301961 0.301961
0.301961 0.301961 0.301961
0.333333 0.325490 0.298039
0.549020 0.454902 0.266667
0.780392 0.545098 0.219608
0.992157 0.584314 0.176471
0.250980 0.482353 0.270588
0.262745 0.482353 0.266667
0.290196 0.490196 0.266667
0.333333 0.494118 0.258824
0.388235 0.509804 0.254902
0.466667 0.525490 0.247059
0.564706 0.552941 0.235294
0.741176 0.619608 0.188235
0.949020 0.670588 0.113725
0.000000 0.690196 0.180392
0.000000 0.690196 0.180392
0.133333 0.694118 0.176471
0.258824 0.698039 0.168627
0.372549 0.705882 0.160784
0.482353 0.717647 0.145098
0.603922 0.733333 0.109804
0.749020 0.764706 0.027451
0.937255 0.796078 0.000000
0.000000 0.870588 0.000000
0.000000 0.870588 0.000000
0.000000 0.870588 0.000000
0.000000 0.874510 0.000000
0.180392 0.878431 0.000000
0.396078 0.882353 0.000000
0.556863 0.894118 0.000000
0.717647 0.913725 0.000000
0.909804 0.929412 0.000000
0.000000 1.000000 0.000000
0.000000 1.000000 0.000000
0.000000 1.000000 0.000000
0.000000 1.000000 0.000000
0.000000 1.000000 0.000000
0.000000 1.000000 0.000000
0.313725 1.000000 0.000000
0.560784 1.000000 0.000000
0.764706 1.000000 0.000000
0.000000 1.000000 0.000000
0.000000 1.000000 0.000000
0.000000 1.000000 0.000000
0.000000 1.000000 0.000000
0.000000 1.000000 0.000000
0.000000 1.000000 0.000000
0.000000 1.000000 0.000000
0.364706 1.000000 0.000000
0.737255 1.000000 0.000000
0.301961 0.301961 0.301961
0.301961 0.301961 0.301961
0.301961 0.301961 0.301961
0.301961 0.301961 0.301961
0.301961 0.301961 0.301961
0.321569 0.301961 0.301961
0.560784 0.325490 0.290196
0.784314 0.345098 0.274510
0.992157 0.325490 0.258824
0.301961 0.301961 0.301961
0.301961 0.301961 0.301961
0.301961 0.301961 0.301961
0.301961 0.301961 0.301961
0.301961 0.301961 0.301961
0.325490 0.305882 0.301961
0.580392 0.352941 0.286275
0.815686 0.384314 0.262745
1.000000 0.364706 0.247059
0.301961 0.301961 0.301961
0.301961 0.301961 0.301961
0.301961 0.301961 0.301961
0.301961 0.301961 0.301961
0.301961 0.301961 0.301961
0.333333 0.313725 0.298039
0.552941 0.392157 0.278431
0.772549 0.439216 0.254902
0.988235 0.443137 0.235294
0.301961 0.301961 0.301961
0.301961 0.301961 0.301961
0.301961 0.301961 0.301961
0.301961 0.301961 0.301961
0.301961 0.301961 0.301961
0.364706 0.349020 0.294118
0.584314 0.474510 0.258824
0.811765 0.549020 0.211765
1.000000 0.549020 0.184314
0.274510 0.482353 0.266667
0.286275 0.486275 0.266667
0.309804 0.490196 0.262745
0.352941 0.501961 0.258824
0.411765 0.513725 0.254902
0.482353 0.529412 0.247059
0.580392 0.552941 0.231373
0.772549 0.623529 0.180392
0.984314 0.654902 0.129412
0.050980 0.690196 0.176471
0.113725 0.690196 0.176471
0.200000 0.694118 0.172549
0.298039 0.698039 0.164706
0.396078 0.705882 0.152941
0.501961 0.717647 0.137255
0.627451 0.737255 0.109804
0.772549 0.756863 0.027451
0.980392 0.780392 0.000000
0.000000 0.874510 0.000000
0.000000 0.870588 0.000000
0.000000 0.874510 0.000000
0.000000 0.874510 0.000000
0.215686 0.878431 0.000000
0.415686 0.882353 0.000000
0.576471 0.894118 0.000000
0.741176 0.909804 0.000000
0.960784 0.921569 0.000000
0.000000 1.000000 0.000000
0.000000 1.000000 0.000000
0.000000 1.000000 0.000000
0.000000 1.000000 0.000000
0.000000 1.000000 0.000000
0.000000 1.000000 0.000000
0.270588 1.000000 0.000000
0.556863 1.000000 0.000000
0.792157 1.000000 0.000000
0.000000 1.000000 0.000000
0.000000 1.000000 0.000000
0.000000 1.000000 0.000000
0.000000 1.000000 0.000000
0.000000 1.000000 0.000000
0.000000 1.000000 0.000000
0.000000 1.000000 0.000000
0.180392 1.000000 0.000000
0.717647 1.000000 0.000000
0.301961 0.301961 0.301961
0.301961 0.301961 0.301961
0.301961 0.301961 0.301961
0.301961 0.301961 0.301961
0.301961 0.301961 0.301961
0.376471 0.301961 0.301961
0.623529 0.313725 0.290196
0.843137 0.317647 0.274510
1.000000 0.270588 0.262745
0.301961 0.301961 0.301961
0.301961 0.301961 0.301961
0.301961 0.301961 0.301961
0.301961 0.301961 0.301961
0.301961 0.301961 0.301961
0.423529 0.317647 0.298039
0.658824 0.349020 0.282353
0.886275 0.364706 0.262745
1.000000 0.321569 0.250980
0.301961 0.301961 0.301961
0.301961 0.301961 0.301961
0.301961 0.301961 0.301961
0.301961 0.301961 0.301961
0.301961 0.301961 0.301961
0.400000 0.337255 0.294118
0.619608 0.400000 0.274510
0.831373 0.435294 0.250980
1.000000 0.407843 0.235294
0.301961 0.301961 0.301961
0.301961 0.301961 0.301961
0.301961 0.301961 0.301961
0.301961 0.301961 0.301961
0.337255 0.337255 0.298039
0.450980 0.407843 0.278431
0.658824 0.505882 0.239216
0.882353 0.564706 0.200000
1.000000 0.533333 0.188235
0.301961 0.494118 0.262745
0.313725 0.490196 0.262745
0.337255 0.498039 0.262745
0.376471 0.509804 0.258824
0.439216 0.529412 0.250980
0.513725 0.549020 0.235294
0.627451 0.572549 0.223529
0.835294 0.643137 0.164706
1.000000 0.623529 0.133333
0.172549 0.698039 0.172549
0.200000 0.698039 0.168627
0.262745 0.701961 0.168627
0.337255 0.705882 0.160784
0.431373 0.709804 0.149020
0.529412 0.717647 0.133333
0.662745 0.737255 0.098039
0.819608 0.756863 0.019608
1.000000 0.741176 0.000000
0.000000 0.882353 0.000000
0.000000 0.874510 0.000000
0.000000 0.878431 0.000000
0.000000 0.882353 0.000000
0.254902 0.890196 0.000000
0.443137 0.898039 0.000000
0.607843 0.905882 0.000000
0.796078 0.921569 0.000000
1.000000 0.905882 0.000000
0.000000 1.000000 0.000000
0.000000 1.000000 0.000000
0.000000 1.000000 0.000000
0.000000 1.000000 0.000000
0.000000 1.000000 0.000000
0.000000 1.000000 0.000000
0.184314 1.000000 0.000000
0.556863 1.000000 0.000000
0.839216 1.000000 0.000000
0.000000 1.000000 0.000000
0.000000 1.000000 0.000000
0.000000 1.000000 0.000000
0.000000 1.000000 0.000000
0.000000 1.000000 0.000000
0.000000 1.000000 0.000000
0.000000 1.000000 0.000000
0.000000 1.000000 0.000000
0.705882 1.000000 0.000000
0.301961 0.301961 0.301961
0.301961 0.301961 0.301961
0.301961 0.301961 0.301961
0.301961 0.301961 0.301961
0.301961 0.301961 0.301961
0.501961 0.278431 0.298039
0.721569 0.258824 0.290196
0.901961 0.258824 0.278431
1.000000 0.113725 0.274510
0.301961 0.301961 0.301961
0.301961 0.301961 0.301961
0.301961 0.301961 0.301961
0.301961 0.301961 0.301961
0.301961 0.301961 0.301961
0.541176 0.305882 0.298039
0.749020 0.305882 0.282353
0.929412 0.313725 0.266667
1.000000 0.207843 0.262745
0.301961 0.301961 0.301961
0.301961 0.301961 0.301961
0.301961 0.301961 0.301961
0.301961 0.301961 0.301961
0.305882 0.305882 0.301961
0.517647 0.356863 0.286275
0.717647 0.396078 0.266667
0.890196 0.411765 0.250980
1.000000 0.341176 0.247059
0.301961 0.301961 0.301961
0.301961 0.301961 0.301961
0.301961 0.301961 0.301961
0.317647 0.321569 0.298039
0.368627 0.352941 0.294118
0.552941 0.454902 0.262745
0.749020 0.521569 0.231373
0.929412 0.549020 0.203922
1.000000 0.474510 0.203922
0.337255 0.529412 0.250980
0.349020 0.525490 0.250980
0.372549 0.525490 0.247059
0.419608 0.533333 0.247059
0.482353 0.545098 0.239216
0.564706 0.560784 0.227451
0.701961 0.603922 0.196078
0.886275 0.647059 0.149020
1.000000 0.584314 0.156863
0.227451 0.717647 0.149020
0.254902 0.721569 0.152941
0.301961 0.721569 0.145098
0.380392 0.721569 0.145098
0.470588 0.725490 0.133333
0.580392 0.733333 0.113725
0.713725 0.749020 0.070588
0.878431 0.756863 0.000000
1.000000 0.682353 0.035294
0.000000 0.901961 0.000000
0.000000 0.894118 0.000000
0.000000 0.894118 0.000000
0.105882 0.898039 0.000000
0.333333 0.901961 0.000000
0.494118 0.909804 0.000000
0.654902 0.909804 0.000000
0.882353 0.913725 0.000000
1.000000 0.807843 0.000000
0.000000 1.000000 0.000000
0.000000 1.000000 0.000000
0.000000 1.000000 0.000000
0.000000 1.000000 0.000000
0.000000 1.000000 0.000000
0.000000 1.000000 0.000000
0.000000 1.000000 0.000000
0.572549 1.000000 0.000000
0.949020 1.000000 0.000000
0.000000 1.000000 0.000000
0.000000 1.000000 0.000000
0.000000 1.000000 0.000000
0.000000 1.000000 0.000000
0.000000 1.000000 0.000000
0.000000 1.000000 0.000000
0.000000 1.000000 0.000000
0.000000 1.000000 0.000000
0.729412 1.000000 0.000000
0.301961 0.301961 0.301961
0.301961 0.301961 0.301961
0.301961 0.301961 0.301961
0.301961 0.301961 0.301961
0.486275 0.266667 0.341176
0.694118 0.196078 0.364706
0.890196 0.000000 0.352941
1.000000 0.000000 0.309804
1.000000 0.000000 0.294118
0.301961 0.301961 0.301961
0.301961 0.301961 0.301961
0.301961 0.301961 0.301961
0.317647 0.298039 0.305882
0.533333 0.258824 0.333333
0.733333 0.176471 0.329412
0.925490 0.000000 0.294118
1.000000 0.000000 0.286275
1.000000 0.000000 0.282353
0.301961 0.301961 0.301961
0.301961 0.301961 0.301961
0.301961 0.301961 0.301961
0.325490 0.301961 0.301961
0.521569 0.309804 0.294118
0.713725 0.313725 0.286275
0.894118 0.298039 0.274510
1.000000 0.266667 0.266667
1.000000 0.062745 0.262745
0.309804 0.321569 0.298039
0.305882 0.309804 0.301961
0.317647 0.321569 0.298039
0.368627 0.352941 0.294118
0.537255 0.427451 0.274510
0.721569 0.470588 0.247059
0.905882 0.490196 0.227451
1.000000 0.462745 0.215686
1.000000 0.341176 0.231373
0.341176 0.564706 0.235294
0.356863 0.556863 0.243137
0.384314 0.545098 0.243137
0.443137 0.545098 0.239216
0.537255 0.560784 0.231373
0.658824 0.580392 0.211765
0.850980 0.627451 0.172549
1.000000 0.611765 0.152941
1.000000 0.470588 0.192157
0.278431 0.760784 0.109804
0.301961 0.760784 0.109804
0.356863 0.760784 0.109804
0.431373 0.752941 0.105882
0.525490 0.741176 0.109804
0.654902 0.749020 0.090196
0.803922 0.756863 0.019608
1.000000 0.745098 0.000000
1.000000 0.556863 0.141176
0.000000 0.941176 0.000000
0.000000 0.933333 0.000000
0.000000 0.929412 0.000000
0.129412 0.929412 0.000000
0.364706 0.925490 0.000000
0.541176 0.925490 0.000000
0.737255 0.917647 0.000000
1.000000 0.894118 0.000000
1.000000 0.639216 0.062745
0.000000 1.000000 0.000000
0.000000 1.000000 0.000000
0.000000 1.000000 0.000000
0.000000 1.000000 0.000000
0.000000 1.000000 0.000000
0.000000 1.000000 0.000000
0.000000 1.000000 0.000000
0.627451 1.000000 0.000000
1.000000 0.933333 0.000000
0.000000 1.000000 0.000000
0.000000 1.000000 0.000000
0.000000 1.000000 0.000000
0.000000 1.000000 0.000000
0.000000 1.000000 0.000000
0.000000 1.000000 0.000000
0.000000 1.000000 0.000000
0.000000 1.000000 0.000000
0.792157 1.000000 0.000000
0.415686 0.282353 0.411765
0.427451 0.278431 0.411765
0.521569 0.258824 0.466667
0.650980 0.203922 0.517647
0.811765 0.070588 0.556863
0.968627 0.000000 0.576471
1.000000 0.000000 0.576471
1.000000 0.000000 0.556863
1.000000 0.000000 0.541176
0.458824 0.274510 0.447059
0.466667 0.266667 0.439216
0.568627 0.239216 0.490196
0.701961 0.180392 0.533333
0.858824 0.000000 0.556863
1.000000 0.000000 0.564706
1.000000 0.000000 0.556863
1.000000 0.000000 0.541176
1.000000 0.000000 0.529412
0.447059 0.274510 0.411765
0.470588 0.270588 0.415686
0.552941 0.250980 0.443137
0.682353 0.192157 0.462745
0.843137 0.031373 0.486275
0.996078 0.000000 0.490196
1.000000 0.000000 0.486275
1.000000 0.000000 0.505882
1.000000 0.000000 0.513725
0.450980 0.356863 0.341176
0.474510 0.341176 0.329412
0.568627 0.337255 0.341176
0.705882 0.333333 0.360784
0.866667 0.325490 0.392157
1.000000 0.317647 0.423529
1.000000 0.317647 0.486275
1.000000 0.286275 0.556863
1.000000 0.215686 0.588235
0.184314 0.596078 0.231373
0.250980 0.572549 0.239216
0.376471 0.564706 0.235294
0.541176 0.568627 0.227451
0.745098 0.568627 0.211765
0.925490 0.549020 0.262745
1.000000 0.482353 0.372549
1.000000 0.462745 0.564706
1.000000 0.474510 0.650980
0.000000 0.823529 0.000000
0.000000 0.823529 0.000000
0.121569 0.811765 0.019608
0.341176 0.784314 0.066667
0.556863 0.756863 0.086275
0.796078 0.756863 0.023529
1.000000 0.662745 0.137255
1.000000 0.533333 0.525490
1.000000 0.678431 0.756863
0.000000 1.000000 0.000000
0.000000 1.000000 0.000000
0.000000 1.000000 0.000000
0.000000 0.992157 0.000000
0.294118 0.972549 0.000000
0.560784 0.937255 0.000000
0.976471 0.901961 0.000000
1.000000 0.623529 0.450980
1.000000 0.807843 0.839216
0.000000 1.000000 0.000000
0.000000 1.000000 0.000000
0.000000 1.000000 0.000000
0.000000 1.000000 0.000000
0.000000 1.000000 0.000000
0.000000 1.000000 0.000000
0.000000 1.000000 0.000000
0.882353 1.000000 0.000000
1.000000 0.643137 0.039216
0.000000 1.000000 0.000000
0.000000 1.000000 0.000000
0.000000 1.000000 0.000000
0.000000 1.000000 0.000000
0.000000 1.000000 0.000000
0.000000 1.000000 0.000000
0.000000 1.000000 0.000000
0.000000 1.000000 0.000000
1.000000 1.000000 0.000000
