assets/luts-cube/lut-2.cube
#Generated by lutCreator.js
#Coded by SirSerch
#https://github.com/SirSerch/LutCreatorJs
TITLE lutCreatorJs_25
LUT_3D_SIZE 5
0.000000 0.000000 0.000000
0.266667 0.000000 0.000000
0.564706 0.000000 0.000000
0.882353 0.000000 0.000000
1.000000 0.000000 0.000000
0.000000 0.270588 0.000000
0.270588 0.270588 0.000000
0.568627 0.282353 0.000000
0.886275 0.294118 0.000000
1.000000 0.286275 0.000000
0.000000 0.588235 0.000000
0.286275 0.588235 0.000000
0.592157 0.592157 0.000000
0.886275 0.592157 0.000000
1.000000 0.580392 0.000000
0.000000 0.886275 0.000000
0.270588 0.882353 0.000000
0.584314 0.882353 0.000000
0.878431 0.878431 0.000000
1.000000 0.854902 0.000000
0.192157 1.000000 0.192157
0.329412 1.000000 0.196078
0.556863 1.000000 0.211765
0.788235 1.000000 0.247059
1.000000 1.000000 0.305882
0.000000 0.133333 0.262745
0.211765 0.019608 0.270588
0.572549 0.000000 0.282353
0.886275 0.000000 0.274510
1.000000 0.000000 0.270588
0.000000 0.282353 0.266667
0.270588 0.270588 0.270588
0.580392 0.270588 0.270588
0.886275 0.270588 0.270588
1.000000 0.270588 0.270588
0.000000 0.592157 0.266667
0.266667 0.592157 0.266667
0.592157 0.592157 0.262745
0.894118 0.592157 0.266667
1.000000 0.576471 0.274510
0.000000 0.882353 0.266667
0.270588 0.886275 0.270588
0.584314 0.882353 0.270588
0.898039 0.898039 0.298039
1.000000 0.866667 0.333333
0.329412 1.000000 0.411765
0.380392 1.000000 0.380392
0.588235 1.000000 0.403922
0.803922 1.000000 0.443137
1.000000 1.000000 0.490196
0.000000 0.317647 0.576471
0.000000 0.215686 0.580392
0.474510 0.047059 0.588235
0.886275 0.000000 0.596078
1.000000 0.000000 0.580392
0.000000 0.450980 0.572549
0.000000 0.392157 0.580392
0.501961 0.286275 0.588235
0.890196 0.258824 0.588235
1.000000 0.290196 0.588235
0.000000 0.619608 0.584314
0.207843 0.615686 0.588235
0.596078 0.596078 0.596078
0.886275 0.596078 0.596078
1.000000 0.600000 0.600000
0.015686 0.882353 0.596078
0.313725 0.882353 0.596078
0.600000 0.882353 0.600000
0.886275 0.890196 0.611765
1.000000 0.866667 0.623529
0.454902 1.000000 0.647059
0.498039 1.000000 0.639216
0.650980 1.000000 0.650980
0.835294 1.000000 0.678431
1.000000 1.000000 0.701961
0.000000 0.490196 0.862745
0.000000 0.439216 0.870588
0.000000 0.207843 0.882353
0.725490 0.141176 0.890196
1.000000 0.000000 0.901961
0.000000 0.584314 0.870588
0.000000 0.541176 0.866667
0.000000 0.368627 0.890196
0.745098 0.337255 0.894118
1.000000 0.329412 0.898039
0.000000 0.788235 0.874510
0.000000 0.772549 0.870588
0.439216 0.701961 0.886275
0.811765 0.635294 0.898039
1.000000 0.647059 0.886275
0.023529 0.933333 0.886275
0.301961 0.925490 0.878431
0.623529 0.917647 0.890196
0.905882 0.905882 0.905882
1.000000 0.917647 0.917647
0.643137 1.000000 0.874510
0.662745 1.000000 0.870588
0.819608 1.000000 0.905882
0.941176 1.000000 0.941176
1.000000 1.000000 0.937255
0.000000 0.607843 1.000000
0.000000 0.576471 1.000000
0.000000 0.462745 1.000000
0.247059 0.345098 1.000000
0.878431 0.376471 1.000000
0.000000 0.674510 1.000000
0.000000 0.650980 1.000000
0.000000 0.564706 1.000000
0.364706 0.470588 1.000000
0.894118 0.501961 1.000000
0.000000 0.847059 1.000000
0.000000 0.827451 1.000000
0.352941 0.784314 1.000000
0.600000 0.709804 1.000000
0.929412 0.725490 1.000000
0.419608 0.968627 1.000000
0.470588 0.964706 1.000000
0.709804 0.964706 1.000000
0.894118 0.949020 1.000000
0.984314 0.945098 1.000000
0.737255 1.000000 0.996078
0.764706 1.000000 0.996078
0.901961 1.000000 1.000000
1.000000 1.000000 1.000000
1.000000 1.000000 1.000000
