assets/luts-cube/lut-3.cube
#Generated by lutCreator.js
#Coded by SirSerch
#https://github.com/SirSerch/LutCreatorJs
TITLE lutCreatorJs_25
LUT_3D_SIZE 5
0.301961 0.301961 0.301961
0.301961 0.301961 0.301961
0.301961 0.301961 0.301961
0.490196 0.313725 0.294118
0.945098 0.352941 0.258824
0.301961 0.301961 0.301961
0.301961 0.301961 0.301961
0.301961 0.301961 0.301961
0.490196 0.360784 0.290196
0.933333 0.466667 0.231373
0.203922 0.474510 0.270588
0.247059 0.482353 0.266667
0.368627 0.505882 0.258824
0.537255 0.533333 0.239216
0.917647 0.674510 0.121569
0.000000 0.870588 0.000000
0.000000 0.870588 0.000000
0.000000 0.874510 0.000000
0.525490 0.882353 0.000000
0.854902 0.921569 0.000000
0.000000 1.000000 0.000000
0.000000 1.000000 0.000000
0.000000 1.000000 0.000000
0.000000 1.000000 0.000000
0.788235 1.000000 0.000000
0.301961 0.301961 0.301961
0.301961 0.301961 0.301961
0.301961 0.301961 0.301961
0.498039 0.329412 0.294118
0.952941 0.368627 0.254902
0.301961 0.301961 0.301961
0.301961 0.301961 0.301961
0.301961 0.301961 0.301961
0.498039 0.372549 0.282353
0.945098 0.474510 0.227451
0.235294 0.478431 0.270588
0.270588 0.486275 0.266667
0.376471 0.505882 0.254902
0.552941 0.549020 0.235294
0.929412 0.674510 0.113725
0.000000 0.870588 0.000000
0.000000 0.874510 0.000000
0.117647 0.874510 0.000000
0.549020 0.901961 0.000000
0.886275 0.933333 0.000000
0.000000 1.000000 0.000000
0.000000 1.000000 0.000000
0.000000 1.000000 0.000000
0.000000 1.000000 0.000000
0.760784 1.000000 0.000000
0.301961 0.301961 0.301961
0.301961 0.301961 0.301961
0.301961 0.301961 0.301961
0.560784 0.325490 0.290196
0.992157 0.325490 0.258824
0.301961 0.301961 0.301961
0.301961 0.301961 0.301961
0.301961 0.301961 0.301961
0.552941 0.392157 0.278431
0.988235 0.443137 0.235294
0.274510 0.482353 0.266667
0.309804 0.490196 0.262745
0.411765 0.513725 0.254902
0.580392 0.552941 0.231373
0.984314 0.654902 0.129412
0.000000 0.874510 0.000000
0.000000 0.874510 0.000000
0.215686 0.878431 0.000000
0.576471 0.894118 0.000000
0.960784 0.921569 0.000000
0.000000 1.000000 0.000000
0.000000 1.000000 0.000000
0.000000 1.000000 0.000000
0.000000 1.000000 0.000000
0.717647 1.000000 0.000000
0.301961 0.301961 0.301961
0.301961 0.301961 0.301961
0.301961 0.301961 0.301961
0.721569 0.258824 0.290196
1.000000 0.113725 0.274510
0.301961 0.301961 0.301961
0.301961 0.301961 0.301961
0.305882 0.305882 0.301961
0.717647 0.396078 0.266667
1.000000 0.341176 0.247059
0.337255 0.529412 0.250980
0.372549 0.525490 0.247059
0.482353 0.545098 0.239216
0.701961 0.603922 0.196078
1.000000 0.584314 0.156863
0.000000 0.901961 0.000000
0.000000 0.894118 0.000000
0.333333 0.901961 0.000000
0.654902 0.909804 0.000000
1.000000 0.807843 0.000000
0.000000 1.000000 0.000000
0.000000 1.000000 0.000000
0.000000 1.000000 0.000000
0.000000 1.000000 0.000000
0.729412 1.000000 0.000000
0.415686 0.282353 0.411765
0.521569 0.258824 0.466667
0.811765 0.070588 0.556863
1.000000 0.000000 0.576471
1.000000 0.000000 0.541176
0.447059 0.274510 0.411765
0.552941 0.250980 0.443137
0.843137 0.031373 0.486275
1.000000 0.000000 0.486275
1.000000 0.000000 0.513725
0.184314 0.596078 0.231373
0.376471 0.564706 0.235294
0.745098 0.568627 0.211765
1.000000 0.482353 0.372549
1.000000 0.474510 0.650980
0.000000 1.000000 0.000000
0.000000 1.000000 0.000000
0.294118 0.972549 0.000000
0.976471 0.901961 0.000000
1.000000 0.807843 0.839216
0.000000 1.000000 0.000000
0.000000 1.000000 0.000000
0.000000 1.000000 0.000000
0.000000 1.000000 0.000000
1.000000 1.000000 0.000000
