assets/luts-cube/lut-4.cube
#Generated by lutCreator.js
#Coded by SirSerch
#https://github.com/SirSerch/LutCreatorJs
TITLE lutCreatorJs_25
LUT_3D_SIZE 9
0.000000 0.000000 0.000000
0.533333 0.000000 0.000000
0.890196 0.000000 0.000000
1.000000 0.000000 0.000000
1.000000 0.007843 0.000000
1.000000 0.117647 0.000000
1.000000 0.180392 0.015686
1.000000 0.219608 0.133333
1.000000 0.250980 0.196078
0.250980 0.474510 0.000000
0.588235 0.474510 0.000000
0.894118 0.431373 0.000000
1.000000 0.368627 0.000000
1.000000 0.325490 0.000000
1.000000 0.301961 0.000000
1.000000 0.301961 0.078431
1.000000 0.301961 0.160784
1.000000 0.313725 0.219608
0.474510 0.745098 0.000000
0.635294 0.737255 0.000000
0.882353 0.717647 0.000000
1.000000 0.635294 0.000000
1.000000 0.556863 0.000000
1.000000 0.501961 0.066667
1.000000 0.462745 0.164706
1.000000 0.435294 0.219608
1.000000 0.419608 0.262745
0.600000 0.890196 0.000000
0.682353 0.886275 0.000000
0.847059 0.878431 0.000000
1.000000 0.839216 0.000000
1.000000 0.752941 0.109804
1.000000 0.678431 0.196078
1.000000 0.619608 0.250980
1.000000 0.576471 0.294118
1.000000 0.545098 0.333333
0.670588 0.964706 0.207843
0.717647 0.960784 0.211765
0.815686 0.952941 0.211765
0.956863 0.941176 0.215686
1.000000 0.894118 0.254902
1.000000 0.819608 0.305882
1.000000 0.756863 0.349020
1.000000 0.705882 0.384314
1.000000 0.666667 0.419608
0.717647 0.996078 0.380392
0.745098 0.996078 0.380392
0.807843 0.988235 0.380392
0.901961 0.980392 0.384314
1.000000 0.972549 0.392157
1.000000 0.929412 0.419608
1.000000 0.866667 0.450980
1.000000 0.811765 0.478431
1.000000 0.772549 0.509804
0.760784 1.000000 0.517647
0.776471 1.000000 0.517647
0.811765 1.000000 0.517647
0.874510 1.000000 0.525490
0.949020 0.996078 0.525490
1.000000 0.992157 0.533333
1.000000 0.949020 0.549020
1.000000 0.901961 0.572549
1.000000 0.862745 0.596078
0.796078 1.000000 0.631373
0.807843 1.000000 0.635294
0.827451 1.000000 0.635294
0.866667 1.000000 0.639216
0.917647 1.000000 0.643137
0.980392 1.000000 0.647059
1.000000 1.000000 0.650980
1.000000 0.964706 0.666667
1.000000 0.929412 0.682353
0.843137 1.000000 0.745098
0.847059 1.000000 0.745098
0.858824 1.000000 0.745098
0.878431 1.000000 0.745098
0.913725 1.000000 0.752941
0.952941 1.000000 0.756863
1.000000 1.000000 0.760784
1.000000 1.000000 0.764706
1.000000 0.972549 0.780392
0.054902 0.003922 0.282353
0.529412 0.000000 0.294118
0.890196 0.000000 0.235294
1.000000 0.239216 0.223529
1.000000 0.282353 0.235294
1.000000 0.305882 0.250980
1.000000 0.321569 0.274510
1.000000 0.337255 0.298039
1.000000 0.349020 0.321569
0.309804 0.470588 0.250980
0.607843 0.474510 0.239216
0.878431 0.462745 0.227451
1.000000 0.435294 0.227451
1.000000 0.411765 0.239216
1.000000 0.396078 0.258824
1.000000 0.388235 0.282353
1.000000 0.388235 0.309804
1.000000 0.392157 0.337255
0.545098 0.741176 0.200000
0.678431 0.741176 0.200000
0.882353 0.713725 0.196078
1.000000 0.650980 0.223529
1.000000 0.588235 0.254902
1.000000 0.541176 0.282353
1.000000 0.509804 0.309804
1.000000 0.486275 0.337255
1.000000 0.474510 0.364706
0.639216 0.886275 0.235294
0.713725 0.886275 0.235294
0.858824 0.878431 0.235294
1.000000 0.835294 0.254902
1.000000 0.760784 0.298039
1.000000 0.698039 0.333333
1.000000 0.647059 0.360784
1.000000 0.607843 0.388235
1.000000 0.580392 0.415686
0.698039 0.960784 0.341176
0.737255 0.956863 0.341176
0.827451 0.949020 0.341176
0.960784 0.945098 0.349020
1.000000 0.898039 0.372549
1.000000 0.827451 0.400000
1.000000 0.772549 0.431373
1.000000 0.725490 0.458824
1.000000 0.694118 0.486275
0.737255 0.992157 0.454902
0.764706 0.992157 0.454902
0.819608 0.988235 0.454902
0.905882 0.980392 0.458824
1.000000 0.968627 0.462745
1.000000 0.925490 0.482353
1.000000 0.870588 0.509804
1.000000 0.823529 0.533333
1.000000 0.784314 0.556863
0.776471 1.000000 0.560784
0.792157 1.000000 0.564706
0.823529 1.000000 0.560784
0.878431 1.000000 0.564706
0.952941 0.996078 0.568627
1.000000 0.992157 0.576471
1.000000 0.952941 0.592157
1.000000 0.901961 0.607843
1.000000 0.870588 0.631373
0.807843 1.000000 0.662745
0.819608 1.000000 0.662745
0.839216 1.000000 0.662745
0.870588 1.000000 0.662745
0.921569 1.000000 0.666667
0.976471 1.000000 0.670588
1.000000 0.996078 0.674510
1.000000 0.964706 0.686275
1.000000 0.933333 0.701961
0.847059 1.000000 0.760784
0.850980 1.000000 0.760784
0.866667 1.000000 0.760784
0.886275 1.000000 0.764706
0.917647 1.000000 0.764706
0.952941 1.000000 0.768627
1.000000 1.000000 0.776471
1.000000 0.996078 0.780392
1.000000 0.972549 0.792157
0.149020 0.015686 0.498039
0.494118 0.000000 0.498039
0.862745 0.109804 0.486275
1.000000 0.309804 0.458824
1.000000 0.392157 0.450980
1.000000 0.443137 0.458824
1.000000 0.482353 0.478431
1.000000 0.490196 0.486275
1.000000 0.498039 0.501961
0.423529 0.466667 0.486275
0.623529 0.474510 0.478431
0.866667 0.478431 0.474510
1.000000 0.486275 0.458824
1.000000 0.501961 0.462745
1.000000 0.513725 0.470588
1.000000 0.521569 0.482353
1.000000 0.525490 0.498039
1.000000 0.525490 0.505882
0.576471 0.737255 0.462745
0.698039 0.737255 0.462745
0.878431 0.713725 0.462745
1.000000 0.678431 0.466667
1.000000 0.647059 0.478431
1.000000 0.619608 0.486275
1.000000 0.600000 0.498039
1.000000 0.588235 0.513725
1.000000 0.580392 0.525490
0.686275 0.886275 0.470588
0.749020 0.882353 0.474510
0.874510 0.874510 0.474510
1.000000 0.839216 0.482353
1.000000 0.784314 0.498039
1.000000 0.737255 0.509804
1.000000 0.701961 0.529412
1.000000 0.674510 0.541176
1.000000 0.654902 0.556863
0.749020 0.956863 0.521569
0.776471 0.949020 0.517647
0.854902 0.949020 0.521569
0.960784 0.937255 0.521569
1.000000 0.898039 0.533333
1.000000 0.847059 0.549020
1.000000 0.803922 0.564706
1.000000 0.764706 0.580392
1.000000 0.737255 0.596078
0.784314 0.992157 0.580392
0.803922 0.988235 0.580392
0.847059 0.984314 0.580392
0.921569 0.976471 0.580392
1.000000 0.968627 0.584314
1.000000 0.929412 0.596078
1.000000 0.882353 0.611765
1.000000 0.847059 0.627451
1.000000 0.815686 0.643137
0.803922 1.000000 0.647059
0.815686 1.000000 0.647059
0.847059 1.000000 0.650980
0.894118 1.000000 0.647059
0.956863 0.996078 0.650980
1.000000 0.988235 0.650980
1.000000 0.956863 0.666667
1.000000 0.917647 0.682353
1.000000 0.882353 0.694118
0.831373 1.000000 0.717647
0.835294 1.000000 0.717647
0.854902 1.000000 0.717647
0.886275 1.000000 0.721569
0.929412 1.000000 0.721569
0.976471 1.000000 0.721569
1.000000 0.996078 0.725490
1.000000 0.968627 0.737255
1.000000 0.937255 0.749020
0.858824 1.000000 0.792157
0.862745 1.000000 0.792157
0.874510 1.000000 0.796078
0.894118 1.000000 0.796078
0.921569 1.000000 0.796078
0.956863 1.000000 0.800000
1.000000 1.000000 0.803922
1.000000 1.000000 0.807843
1.000000 0.976471 0.819608
0.270588 0.121569 0.690196
0.521569 0.156863 0.686275
0.827451 0.227451 0.674510
1.000000 0.356863 0.631373
1.000000 0.501961 0.631373
1.000000 0.572549 0.639216
1.000000 0.603922 0.639216
1.000000 0.631373 0.654902
1.000000 0.643137 0.662745
0.501961 0.486275 0.674510
0.639216 0.494118 0.674510
0.847059 0.509804 0.658824
1.000000 0.549020 0.647059
1.000000 0.600000 0.650980
1.000000 0.615686 0.643137
1.000000 0.639216 0.650980
1.000000 0.654902 0.658824
1.000000 0.658824 0.666667
0.643137 0.733333 0.662745
0.729412 0.733333 0.658824
0.870588 0.729412 0.658824
0.992157 0.713725 0.654902
1.000000 0.705882 0.654902
1.000000 0.698039 0.654902
1.000000 0.698039 0.662745
1.000000 0.698039 0.670588
1.000000 0.686275 0.674510
0.729412 0.878431 0.658824
0.780392 0.878431 0.658824
0.882353 0.874510 0.658824
0.984314 0.847059 0.658824
1.000000 0.815686 0.666667
1.000000 0.792157 0.670588
1.000000 0.768627 0.678431
1.000000 0.752941 0.686275
1.000000 0.741176 0.694118
0.792157 0.952941 0.670588
0.815686 0.949020 0.670588
0.882353 0.945098 0.674510
0.964706 0.937255 0.674510
1.000000 0.905882 0.678431
1.000000 0.870588 0.690196
1.000000 0.843137 0.698039
1.000000 0.815686 0.705882
1.000000 0.796078 0.713725
0.827451 0.984314 0.701961
0.843137 0.984314 0.701961
0.878431 0.980392 0.705882
0.933333 0.976471 0.701961
1.000000 0.968627 0.705882
1.000000 0.937255 0.713725
1.000000 0.901961 0.721569
1.000000 0.874510 0.729412
1.000000 0.850980 0.737255
0.843137 1.000000 0.741176
0.850980 1.000000 0.741176
0.870588 1.000000 0.741176
0.909804 1.000000 0.741176
0.964706 0.992157 0.745098
1.000000 0.988235 0.745098
1.000000 0.960784 0.749020
1.000000 0.929412 0.760784
1.000000 0.905882 0.772549
0.854902 1.000000 0.784314
0.858824 1.000000 0.784314
0.874510 1.000000 0.784314
0.901961 1.000000 0.788235
0.937255 1.000000 0.784314
0.976471 1.000000 0.788235
1.000000 0.996078 0.788235
1.000000 0.976471 0.796078
1.000000 0.949020 0.803922
0.878431 1.000000 0.839216
0.882353 1.000000 0.835294
0.894118 1.000000 0.839216
0.905882 1.000000 0.839216
0.929412 1.000000 0.839216
0.960784 1.000000 0.843137
0.996078 1.000000 0.843137
1.000000 1.000000 0.847059
1.000000 0.980392 0.854902
0.384314 0.243137 0.823529
0.545098 0.270588 0.819608
0.792157 0.321569 0.815686
1.000000 0.411765 0.780392
1.000000 0.529412 0.741176
1.000000 0.627451 0.741176
1.000000 0.717647 0.772549
1.000000 0.749020 0.784314
1.000000 0.764706 0.792157
0.556863 0.513725 0.807843
0.654902 0.521569 0.807843
0.835294 0.537255 0.803922
0.992157 0.576471 0.776471
1.000000 0.635294 0.756863
1.000000 0.698039 0.764706
1.000000 0.741176 0.776471
1.000000 0.756863 0.784314
1.000000 0.772549 0.796078
0.701961 0.737255 0.792157
0.760784 0.741176 0.792157
0.862745 0.741176 0.788235
0.968627 0.752941 0.784314
1.000000 0.764706 0.784314
1.000000 0.768627 0.780392
1.000000 0.776471 0.784314
1.000000 0.784314 0.792157
1.000000 0.792157 0.800000
0.780392 0.870588 0.784314
0.815686 0.870588 0.784314
0.890196 0.870588 0.784314
0.964706 0.858824 0.784314
1.000000 0.843137 0.784314
1.000000 0.835294 0.788235
1.000000 0.827451 0.792157
1.000000 0.819608 0.796078
1.000000 0.807843 0.796078
0.831373 0.945098 0.788235
0.850980 0.945098 0.788235
0.898039 0.941176 0.788235
0.964706 0.937255 0.788235
1.000000 0.917647 0.792157
1.000000 0.894118 0.796078
1.000000 0.874510 0.800000
1.000000 0.858824 0.803922
1.000000 0.847059 0.807843
0.862745 0.976471 0.800000
0.874510 0.976471 0.800000
0.898039 0.972549 0.800000
0.941176 0.972549 0.800000
0.996078 0.968627 0.800000
1.000000 0.945098 0.803922
1.000000 0.921569 0.811765
1.000000 0.901961 0.815686
1.000000 0.886275 0.823529
0.878431 1.000000 0.827451
0.882353 1.000000 0.823529
0.898039 1.000000 0.823529
0.921569 0.996078 0.819608
0.964706 0.992157 0.823529
1.000000 0.988235 0.823529
1.000000 0.964706 0.827451
1.000000 0.941176 0.831373
1.000000 0.925490 0.839216
0.878431 1.000000 0.847059
0.882353 1.000000 0.847059
0.894118 1.000000 0.847059
0.913725 1.000000 0.847059
0.941176 1.000000 0.847059
0.980392 1.000000 0.850980
1.000000 0.996078 0.850980
1.000000 0.976471 0.854902
1.000000 0.960784 0.862745
0.894118 1.000000 0.878431
0.898039 1.000000 0.882353
0.905882 1.000000 0.878431
0.917647 1.000000 0.882353
0.937255 1.000000 0.882353
0.960784 1.000000 0.882353
0.992157 1.000000 0.886275
1.000000 1.000000 0.886275
1.000000 0.984314 0.890196
0.470588 0.345098 0.909804
0.576471 0.364706 0.905882
0.764706 0.411765 0.905882
0.968627 0.470588 0.894118
1.000000 0.560784 0.843137
1.000000 0.650980 0.815686
1.000000 0.729412 0.819608
1.000000 0.796078 0.847059
1.000000 0.847059 0.878431
0.600000 0.549020 0.898039
0.670588 0.556863 0.898039
0.803922 0.572549 0.890196
0.972549 0.600000 0.886275
1.000000 0.650980 0.843137
1.000000 0.713725 0.831373
1.000000 0.768627 0.835294
1.000000 0.819608 0.858824
1.000000 0.858824 0.882353
0.737255 0.749020 0.882353
0.776471 0.749020 0.882353
0.858824 0.752941 0.878431
0.960784 0.760784 0.866667
1.000000 0.784314 0.854902
1.000000 0.811765 0.854902
1.000000 0.839216 0.866667
1.000000 0.854902 0.874510
1.000000 0.866667 0.882353
0.811765 0.870588 0.870588
0.839216 0.870588 0.870588
0.890196 0.870588 0.866667
0.952941 0.874510 0.870588
1.000000 0.874510 0.870588
1.000000 0.870588 0.866667
1.000000 0.870588 0.870588
1.000000 0.878431 0.878431
1.000000 0.882353 0.886275
0.866667 0.941176 0.870588
0.878431 0.941176 0.870588
0.909804 0.941176 0.870588
0.956863 0.937255 0.870588
1.000000 0.925490 0.870588
1.000000 0.913725 0.870588
1.000000 0.905882 0.878431
1.000000 0.901961 0.882353
1.000000 0.894118 0.882353
0.890196 0.976471 0.874510
0.898039 0.972549 0.874510
0.917647 0.972549 0.874510
0.949020 0.972549 0.874510
0.988235 0.968627 0.874510
1.000000 0.952941 0.874510
1.000000 0.937255 0.882353
1.000000 0.925490 0.882353
1.000000 0.913725 0.886275
0.905882 0.996078 0.890196
0.909804 0.992157 0.890196
0.921569 0.992157 0.890196
0.937255 0.992157 0.886275
0.968627 0.992157 0.890196
1.000000 0.988235 0.886275
1.000000 0.968627 0.886275
1.000000 0.956863 0.894118
1.000000 0.941176 0.894118
0.917647 1.000000 0.909804
0.921569 1.000000 0.909804
0.921569 1.000000 0.905882
0.933333 1.000000 0.901961
0.949020 1.000000 0.901961
0.976471 1.000000 0.901961
1.000000 0.996078 0.901961
1.000000 0.984314 0.905882
1.000000 0.968627 0.909804
0.925490 1.000000 0.929412
0.929412 1.000000 0.929412
0.925490 1.000000 0.925490
0.933333 1.000000 0.921569
0.945098 1.000000 0.921569
0.964706 1.000000 0.921569
0.988235 1.000000 0.921569
1.000000 1.000000 0.921569
1.000000 0.988235 0.925490
0.533333 0.431373 0.968627
0.607843 0.450980 0.972549
0.745098 0.490196 0.968627
0.909804 0.537255 0.960784
1.000000 0.596078 0.952941
1.000000 0.674510 0.894118
1.000000 0.745098 0.874510
1.000000 0.803922 0.878431
1.000000 0.854902 0.898039
0.635294 0.584314 0.960784
0.686275 0.596078 0.960784
0.788235 0.615686 0.956863
0.921569 0.643137 0.956863
1.000000 0.674510 0.937255
1.000000 0.729412 0.898039
1.000000 0.780392 0.882353
1.000000 0.827451 0.886275
1.000000 0.870588 0.905882
0.756863 0.756863 0.945098
0.784314 0.760784 0.945098
0.847059 0.768627 0.945098
0.937255 0.776471 0.941176
1.000000 0.792157 0.929412
1.000000 0.815686 0.905882
1.000000 0.843137 0.901961
1.000000 0.870588 0.905882
1.000000 0.898039 0.921569
0.831373 0.870588 0.933333
0.850980 0.874510 0.933333
0.890196 0.874510 0.933333
0.949020 0.878431 0.933333
0.996078 0.882353 0.925490
1.000000 0.894118 0.921569
1.000000 0.905882 0.925490
1.000000 0.917647 0.933333
1.000000 0.929412 0.941176
0.874510 0.941176 0.929412
0.886275 0.941176 0.929412
0.913725 0.937255 0.929412
0.949020 0.941176 0.933333
0.984314 0.933333 0.929412
1.000000 0.933333 0.929412
1.000000 0.933333 0.929412
1.000000 0.933333 0.933333
1.000000 0.941176 0.941176
0.913725 0.972549 0.929412
0.921569 0.976471 0.933333
0.929412 0.972549 0.929412
0.949020 0.972549 0.933333
0.980392 0.968627 0.933333
1.000000 0.960784 0.933333
1.000000 0.956863 0.937255
1.000000 0.949020 0.937255
1.000000 0.945098 0.941176
0.929412 0.992157 0.937255
0.933333 0.988235 0.933333
0.937255 0.988235 0.933333
0.952941 0.988235 0.937255
0.972549 0.988235 0.937255
0.996078 0.988235 0.937255
1.000000 0.976471 0.937255
1.000000 0.968627 0.941176
1.000000 0.960784 0.941176
0.945098 1.000000 0.949020
0.945098 1.000000 0.949020
0.949020 1.000000 0.949020
0.956863 1.000000 0.949020
0.968627 1.000000 0.949020
0.980392 1.000000 0.949020
1.000000 0.996078 0.941176
1.000000 0.988235 0.949020
1.000000 0.980392 0.949020
0.960784 1.000000 0.968627
0.960784 1.000000 0.964706
0.960784 1.000000 0.964706
0.964706 1.000000 0.964706
0.964706 1.000000 0.960784
0.968627 1.000000 0.952941
0.988235 1.000000 0.956863
1.000000 1.000000 0.956863
1.000000 0.996078 0.960784
0.584314 0.509804 1.000000
0.635294 0.525490 1.000000
0.737255 0.556863 1.000000
0.862745 0.596078 1.000000
0.992157 0.647059 0.996078
1.000000 0.698039 0.980392
1.000000 0.764706 0.937255
1.000000 0.815686 0.917647
1.000000 0.862745 0.921569
0.662745 0.627451 1.000000
0.698039 0.631373 1.000000
0.772549 0.650980 1.000000
0.882353 0.678431 0.996078
0.996078 0.709804 0.992157
1.000000 0.749020 0.976471
1.000000 0.796078 0.937255
1.000000 0.839216 0.925490
1.000000 0.874510 0.929412
0.768627 0.772549 0.988235
0.792157 0.776471 0.992157
0.839216 0.784314 0.988235
0.909804 0.792157 0.988235
0.988235 0.803922 0.980392
1.000000 0.827451 0.968627
1.000000 0.854902 0.945098
1.000000 0.878431 0.937255
1.000000 0.901961 0.937255
0.843137 0.874510 0.976471
0.858824 0.878431 0.980392
0.886275 0.882353 0.980392
0.929412 0.886275 0.980392
0.988235 0.890196 0.976471
1.000000 0.894118 0.964706
1.000000 0.909804 0.956863
1.000000 0.917647 0.949020
1.000000 0.933333 0.952941
0.874510 0.933333 0.972549
0.886275 0.937255 0.976471
0.905882 0.937255 0.972549
0.937255 0.937255 0.972549
0.976471 0.941176 0.972549
1.000000 0.937255 0.964706
1.000000 0.945098 0.964706
1.000000 0.952941 0.964706
1.000000 0.956863 0.968627
0.905882 0.980392 0.972549
0.913725 0.980392 0.972549
0.925490 0.976471 0.972549
0.945098 0.972549 0.968627
0.968627 0.968627 0.972549
0.996078 0.972549 0.972549
1.000000 0.972549 0.972549
1.000000 0.972549 0.972549
1.000000 0.972549 0.972549
0.937255 0.992157 0.964706
0.941176 0.996078 0.968627
0.949020 0.992157 0.968627
0.964706 0.992157 0.972549
0.972549 0.992157 0.972549
0.988235 0.988235 0.976471
1.000000 0.984314 0.976471
1.000000 0.980392 0.976471
1.000000 0.980392 0.980392
0.964706 1.000000 0.976471
0.964706 1.000000 0.976471
0.968627 1.000000 0.976471
0.972549 1.000000 0.976471
0.976471 0.996078 0.976471
0.984314 0.996078 0.976471
0.996078 0.996078 0.976471
1.000000 0.992157 0.976471
1.000000 0.992157 0.984314
0.980392 1.000000 0.988235
0.980392 1.000000 0.988235
0.984314 1.000000 0.988235
0.984314 1.000000 0.988235
0.984314 1.000000 0.988235
0.988235 1.000000 0.988235
0.988235 1.000000 0.988235
1.000000 1.000000 0.984314
1.000000 1.000000 0.988235
0.623529 0.576471 1.000000
0.654902 0.584314 1.000000
0.733333 0.611765 1.000000
0.831373 0.647059 1.000000
0.937255 0.690196 1.000000
1.000000 0.737255 1.000000
1.000000 0.780392 1.000000
1.000000 0.831373 0.964706
1.000000 0.870588 0.952941
0.686275 0.666667 1.000000
0.709804 0.670588 1.000000
0.772549 0.686275 1.000000
0.854902 0.713725 1.000000
0.945098 0.745098 1.000000
1.000000 0.772549 1.000000
1.000000 0.811765 1.000000
1.000000 0.850980 0.968627
1.000000 0.882353 0.956863
0.780392 0.788235 1.000000
0.796078 0.792157 1.000000
0.831373 0.800000 1.000000
0.886275 0.807843 1.000000
0.952941 0.827451 1.000000
1.000000 0.843137 1.000000
1.000000 0.862745 0.996078
1.000000 0.886275 0.968627
1.000000 0.909804 0.964706
0.854902 0.886275 1.000000
0.862745 0.882353 1.000000
0.882353 0.886275 1.000000
0.917647 0.890196 1.000000
0.960784 0.898039 1.000000
1.000000 0.898039 1.000000
1.000000 0.909804 0.992157
1.000000 0.921569 0.976471
1.000000 0.937255 0.972549
0.843137 0.909804 1.000000
0.854902 0.913725 1.000000
0.894118 0.929412 1.000000
0.933333 0.941176 1.000000
0.960784 0.941176 1.000000
0.992157 0.941176 0.996078
1.000000 0.945098 0.992157
1.000000 0.952941 0.980392
1.000000 0.956863 0.980392
0.882353 0.960784 0.996078
0.890196 0.960784 0.996078
0.909804 0.964706 1.000000
0.933333 0.964706 0.996078
0.960784 0.968627 0.996078
0.984314 0.968627 0.996078
1.000000 0.968627 0.992157
1.000000 0.976471 0.988235
1.000000 0.976471 0.988235
0.917647 1.000000 0.996078
0.921569 0.996078 0.996078
0.933333 0.996078 0.996078
0.949020 0.992157 0.996078
0.968627 0.992157 0.996078
0.980392 0.988235 0.992157
0.996078 0.984314 0.992157
1.000000 0.988235 0.992157
1.000000 0.988235 0.992157
0.956863 1.000000 0.988235
0.956863 1.000000 0.988235
0.960784 1.000000 0.988235
0.968627 1.000000 0.988235
0.980392 1.000000 0.992157
0.988235 1.000000 0.996078
0.992157 0.996078 0.996078
1.000000 0.996078 0.996078
1.000000 0.996078 0.996078
0.972549 1.000000 0.992157
0.972549 1.000000 0.988235
0.976471 1.000000 0.992157
0.980392 1.000000 0.992157
0.984314 1.000000 0.996078
0.992157 1.000000 0.996078
0.996078 1.000000 1.000000
1.000000 1.000000 1.000000
1.000000 1.000000 1.000000
