assets/luts-cube/lut-4.cube
#Generated by lutCreator.js
#Coded by SirSerch
#https://github.com/SirSerch/LutCreatorJs
TITLE lutCreatorJs_25
LUT_3D_SIZE 5
0.000000 0.000000 0.000000
0.890196 0.000000 0.000000
1.000000 0.007843 0.000000
1.000000 0.180392 0.015686
1.000000 0.250980 0.196078
0.474510 0.745098 0.000000
0.882353 0.717647 0.000000
1.000000 0.556863 0.000000
1.000000 0.462745 0.164706
1.000000 0.419608 0.262745
0.670588 0.964706 0.207843
0.815686 0.952941 0.211765
1.000000 0.894118 0.254902
1.000000 0.756863 0.349020
1.000000 0.666667 0.419608
0.760784 1.000000 0.517647
0.811765 1.000000 0.517647
0.949020 0.996078 0.525490
1.000000 0.949020 0.549020
1.000000 0.862745 0.596078
0.843137 1.000000 0.745098
0.858824 1.000000 0.745098
0.913725 1.000000 0.752941
1.000000 1.000000 0.760784
1.000000 0.972549 0.780392
0.149020 0.015686 0.498039
0.862745 0.109804 0.486275
1.000000 0.392157 0.450980
1.000000 0.482353 0.478431
1.000000 0.498039 0.501961
0.576471 0.737255 0.462745
0.878431 0.713725 0.462745
1.000000 0.647059 0.478431
1.000000 0.600000 0.498039
1.000000 0.580392 0.525490
0.749020 0.956863 0.521569
0.854902 0.949020 0.521569
1.000000 0.898039 0.533333
1.000000 0.803922 0.564706
1.000000 0.737255 0.596078
0.803922 1.000000 0.647059
0.847059 1.000000 0.650980
0.956863 0.996078 0.650980
1.000000 0.956863 0.666667
1.000000 0.882353 0.694118
0.858824 1.000000 0.792157
0.874510 1.000000 0.796078
0.921569 1.000000 0.796078
1.000000 1.000000 0.803922
1.000000 0.976471 0.819608
0.384314 0.243137 0.823529
0.792157 0.321569 0.815686
1.000000 0.529412 0.741176
1.000000 0.717647 0.772549
1.000000 0.764706 0.792157
0.701961 0.737255 0.792157
0.862745 0.741176 0.788235
1.000000 0.764706 0.784314
1.000000 0.776471 0.784314
1.000000 0.792157 0.800000
0.831373 0.945098 0.788235
0.898039 0.941176 0.788235
1.000000 0.917647 0.792157
1.000000 0.874510 0.800000
1.000000 0.847059 0.807843
0.878431 1.000000 0.827451
0.898039 1.000000 0.823529
0.964706 0.992157 0.823529
1.000000 0.964706 0.827451
1.000000 0.925490 0.839216
0.894118 1.000000 0.878431
0.905882 1.000000 0.878431
0.937255 1.000000 0.882353
0.992157 1.000000 0.886275
1.000000 0.984314 0.890196
0.533333 0.431373 0.968627
0.745098 0.490196 0.968627
1.000000 0.596078 0.952941
1.000000 0.745098 0.874510
1.000000 0.854902 0.898039
0.756863 0.756863 0.945098
0.847059 0.768627 0.945098
1.000000 0.792157 0.929412
1.000000 0.843137 0.901961
1.000000 0.898039 0.921569
0.874510 0.941176 0.929412
0.913725 0.937255 0.929412
0.984314 0.933333 0.929412
1.000000 0.933333 0.929412
1.000000 0.941176 0.941176
0.929412 0.992157 0.937255
0.937255 0.988235 0.933333
0.972549 0.988235 0.937255
1.000000 0.976471 0.937255
1.000000 0.960784 0.941176
0.960784 1.000000 0.968627
0.960784 1.000000 0.964706
0.964706 1.000000 0.960784
0.988235 1.000000 0.956863
1.000000 0.996078 0.960784
0.623529 0.576471 1.000000
0.733333 0.611765 1.000000
0.937255 0.690196 1.000000
1.000000 0.780392 1.000000
1.000000 0.870588 0.952941
0.780392 0.788235 1.000000
0.831373 0.800000 1.000000
0.952941 0.827451 1.000000
1.000000 0.862745 0.996078
1.000000 0.909804 0.964706
0.843137 0.909804 1.000000
0.894118 0.929412 1.000000
0.960784 0.941176 1.000000
1.000000 0.945098 0.992157
1.000000 0.956863 0.980392
0.917647 1.000000 0.996078
0.933333 0.996078 0.996078
0.968627 0.992157 0.996078
0.996078 0.984314 0.992157
1.000000 0.988235 0.992157
0.972549 1.000000 0.992157
0.976471 1.000000 0.992157
0.984314 1.000000 0.996078
0.996078 1.000000 1.000000
1.000000 1.000000 1.000000
